ncols 121
nrows 121
xllcorner -150.0
yllcorner -150.0
cellsize 2.5
NODATA_value -9999
3.015 3.016 3.018 3.019 3.021 3.022 3.024 3.026 3.028 3.030 3.032 3.035 3.037 3.040 3.042 3.045 3.048 3.051 3.054 3.057 3.060 3.064 3.067 3.071 3.074 3.078 3.082 3.086 3.090 3.094 3.098 3.102 3.106 3.110 3.114 3.118 3.122 3.126 3.130 3.134 3.138 3.142 3.146 3.149 3.153 3.156 3.159 3.162 3.165 3.168 3.170 3.172 3.175 3.176 3.178 3.179 3.180 3.181 3.182 3.182 3.182 3.182 3.182 3.181 3.180 3.179 3.178 3.176 3.175 3.172 3.170 3.168 3.165 3.162 3.159 3.156 3.153 3.149 3.146 3.142 3.138 3.134 3.130 3.126 3.122 3.118 3.114 3.110 3.106 3.102 3.098 3.094 3.090 3.086 3.082 3.078 3.074 3.071 3.067 3.064 3.060 3.057 3.054 3.051 3.048 3.045 3.042 3.040 3.037 3.035 3.032 3.030 3.028 3.026 3.024 3.022 3.021 3.019 3.018 3.016 3.015
2.968 2.969 2.971 2.972 2.974 2.976 2.978 2.980 2.983 2.985 2.988 2.990 2.993 2.996 2.999 3.002 3.006 3.009 3.013 3.016 3.020 3.024 3.028 3.032 3.037 3.041 3.045 3.050 3.054 3.059 3.064 3.069 3.073 3.078 3.083 3.088 3.092 3.097 3.102 3.106 3.111 3.115 3.120 3.124 3.128 3.132 3.135 3.139 3.142 3.145 3.148 3.151 3.153 3.155 3.157 3.159 3.160 3.161 3.162 3.162 3.162 3.162 3.162 3.161 3.160 3.159 3.157 3.155 3.153 3.151 3.148 3.145 3.142 3.139 3.135 3.132 3.128 3.124 3.120 3.115 3.111 3.106 3.102 3.097 3.092 3.088 3.083 3.078 3.073 3.069 3.064 3.059 3.054 3.050 3.045 3.041 3.037 3.032 3.028 3.024 3.020 3.016 3.013 3.009 3.006 3.002 2.999 2.996 2.993 2.990 2.988 2.985 2.983 2.980 2.978 2.976 2.974 2.972 2.971 2.969 2.968
2.920 2.922 2.924 2.926 2.928 2.930 2.933 2.935 2.938 2.941 2.944 2.947 2.950 2.953 2.957 2.961 2.964 2.969 2.973 2.977 2.981 2.986 2.991 2.996 3.000 3.006 3.011 3.016 3.021 3.027 3.032 3.038 3.043 3.049 3.054 3.060 3.065 3.071 3.076 3.082 3.087 3.092 3.097 3.102 3.106 3.111 3.115 3.119 3.123 3.127 3.130 3.133 3.136 3.138 3.140 3.142 3.144 3.145 3.146 3.146 3.146 3.146 3.146 3.145 3.144 3.142 3.140 3.138 3.136 3.133 3.130 3.127 3.123 3.119 3.115 3.111 3.106 3.102 3.097 3.092 3.087 3.082 3.076 3.071 3.065 3.060 3.054 3.049 3.043 3.038 3.032 3.027 3.021 3.016 3.011 3.006 3.000 2.996 2.991 2.986 2.981 2.977 2.973 2.969 2.964 2.961 2.957 2.953 2.950 2.947 2.944 2.941 2.938 2.935 2.933 2.930 2.928 2.926 2.924 2.922 2.920
2.874 2.876 2.878 2.880 2.883 2.885 2.888 2.891 2.894 2.897 2.901 2.904 2.908 2.912 2.916 2.920 2.925 2.929 2.934 2.939 2.944 2.950 2.955 2.961 2.966 2.972 2.978 2.984 2.990 2.997 3.003 3.009 3.016 3.022 3.029 3.035 3.042 3.048 3.054 3.060 3.066 3.072 3.078 3.084 3.089 3.094 3.099 3.104 3.108 3.112 3.116 3.120 3.123 3.126 3.128 3.131 3.132 3.134 3.135 3.135 3.135 3.135 3.135 3.134 3.132 3.131 3.128 3.126 3.123 3.120 3.116 3.112 3.108 3.104 3.099 3.094 3.089 3.084 3.078 3.072 3.066 3.060 3.054 3.048 3.042 3.035 3.029 3.022 3.016 3.009 3.003 2.997 2.990 2.984 2.978 2.972 2.966 2.961 2.955 2.950 2.944 2.939 2.934 2.929 2.925 2.920 2.916 2.912 2.908 2.904 2.901 2.897 2.894 2.891 2.888 2.885 2.883 2.880 2.878 2.876 2.874
2.827 2.830 2.832 2.835 2.838 2.841 2.844 2.847 2.851 2.854 2.858 2.863 2.867 2.871 2.876 2.881 2.886 2.892 2.897 2.903 2.909 2.915 2.921 2.928 2.934 2.941 2.948 2.955 2.962 2.969 2.977 2.984 2.992 2.999 3.006 3.014 3.021 3.029 3.036 3.043 3.050 3.057 3.063 3.070 3.076 3.082 3.088 3.093 3.098 3.103 3.108 3.112 3.115 3.119 3.122 3.124 3.126 3.128 3.129 3.129 3.130 3.129 3.129 3.128 3.126 3.124 3.122 3.119 3.115 3.112 3.108 3.103 3.098 3.093 3.088 3.082 3.076 3.070 3.063 3.057 3.050 3.043 3.036 3.029 3.021 3.014 3.006 2.999 2.992 2.984 2.977 2.969 2.962 2.955 2.948 2.941 2.934 2.928 2.921 2.915 2.909 2.903 2.897 2.892 2.886 2.881 2.876 2.871 2.867 2.863 2.858 2.854 2.851 2.847 2.844 2.841 2.838 2.835 2.832 2.830 2.827
2.781 2.784 2.787 2.790 2.793 2.797 2.800 2.804 2.808 2.813 2.817 2.822 2.827 2.832 2.838 2.843 2.849 2.856 2.862 2.869 2.875 2.882 2.890 2.897 2.905 2.913 2.921 2.929 2.937 2.945 2.954 2.962 2.971 2.979 2.988 2.996 3.005 3.013 3.022 3.030 3.038 3.046 3.054 3.061 3.068 3.075 3.082 3.088 3.094 3.099 3.104 3.109 3.113 3.117 3.120 3.123 3.126 3.127 3.129 3.130 3.130 3.130 3.129 3.127 3.126 3.123 3.120 3.117 3.113 3.109 3.104 3.099 3.094 3.088 3.082 3.075 3.068 3.061 3.053 3.046 3.038 3.030 3.022 3.013 3.005 2.996 2.988 2.979 2.971 2.962 2.954 2.945 2.937 2.929 2.921 2.913 2.905 2.897 2.890 2.882 2.875 2.869 2.862 2.856 2.849 2.843 2.838 2.832 2.827 2.822 2.817 2.813 2.808 2.804 2.800 2.797 2.793 2.790 2.787 2.784 2.781
2.736 2.739 2.742 2.746 2.750 2.754 2.758 2.762 2.767 2.772 2.777 2.783 2.789 2.795 2.801 2.807 2.814 2.821 2.829 2.836 2.844 2.852 2.861 2.869 2.878 2.887 2.896 2.905 2.915 2.924 2.934 2.944 2.954 2.964 2.973 2.983 2.993 3.003 3.012 3.022 3.031 3.040 3.049 3.057 3.066 3.074 3.081 3.088 3.095 3.101 3.107 3.113 3.118 3.122 3.126 3.129 3.132 3.134 3.135 3.136 3.136 3.136 3.135 3.134 3.132 3.129 3.126 3.122 3.118 3.113 3.107 3.101 3.095 3.088 3.081 3.074 3.066 3.057 3.049 3.040 3.031 3.022 3.012 3.003 2.993 2.983 2.973 2.963 2.954 2.944 2.934 2.924 2.915 2.905 2.896 2.887 2.878 2.869 2.861 2.852 2.844 2.836 2.829 2.821 2.814 2.807 2.801 2.795 2.789 2.783 2.777 2.772 2.767 2.762 2.758 2.754 2.750 2.746 2.742 2.739 2.736
2.691 2.695 2.699 2.703 2.707 2.712 2.716 2.722 2.727 2.733 2.739 2.745 2.751 2.758 2.766 2.773 2.781 2.789 2.797 2.806 2.815 2.825 2.834 2.844 2.854 2.864 2.875 2.885 2.896 2.907 2.918 2.930 2.941 2.952 2.963 2.975 2.986 2.997 3.008 3.019 3.029 3.040 3.050 3.060 3.069 3.078 3.087 3.095 3.103 3.110 3.117 3.123 3.129 3.134 3.138 3.142 3.145 3.147 3.149 3.150 3.150 3.150 3.149 3.147 3.145 3.142 3.138 3.134 3.129 3.123 3.117 3.110 3.103 3.095 3.087 3.078 3.069 3.060 3.050 3.040 3.029 3.019 3.008 2.997 2.986 2.975 2.963 2.952 2.941 2.929 2.918 2.907 2.896 2.885 2.875 2.864 2.854 2.844 2.834 2.824 2.815 2.806 2.797 2.789 2.781 2.773 2.766 2.758 2.751 2.745 2.739 2.733 2.727 2.722 2.716 2.712 2.707 2.703 2.699 2.695 2.691
2.647 2.651 2.656 2.660 2.665 2.670 2.676 2.682 2.688 2.694 2.701 2.708 2.716 2.724 2.732 2.741 2.750 2.759 2.769 2.779 2.789 2.800 2.810 2.822 2.833 2.845 2.857 2.869 2.882 2.894 2.907 2.920 2.933 2.945 2.958 2.971 2.984 2.997 3.009 3.022 3.034 3.046 3.057 3.068 3.079 3.090 3.099 3.109 3.118 3.126 3.134 3.141 3.147 3.153 3.158 3.162 3.166 3.168 3.170 3.172 3.172 3.172 3.170 3.168 3.166 3.162 3.158 3.153 3.147 3.141 3.134 3.126 3.118 3.109 3.099 3.089 3.079 3.068 3.057 3.045 3.034 3.021 3.009 2.997 2.984 2.971 2.958 2.945 2.932 2.919 2.907 2.894 2.881 2.869 2.857 2.845 2.833 2.822 2.810 2.800 2.789 2.779 2.769 2.759 2.750 2.741 2.732 2.724 2.716 2.708 2.701 2.694 2.688 2.682 2.676 2.670 2.665 2.660 2.656 2.651 2.647
2.604 2.609 2.613 2.619 2.624 2.630 2.637 2.643 2.650 2.658 2.665 2.674 2.682 2.691 2.701 2.710 2.721 2.731 2.742 2.754 2.765 2.778 2.790 2.803 2.816 2.829 2.843 2.857 2.871 2.885 2.900 2.915 2.929 2.944 2.959 2.973 2.988 3.002 3.017 3.031 3.045 3.058 3.071 3.084 3.096 3.108 3.120 3.130 3.140 3.150 3.159 3.167 3.174 3.181 3.186 3.191 3.195 3.198 3.201 3.202 3.202 3.202 3.201 3.198 3.195 3.191 3.186 3.181 3.174 3.167 3.159 3.150 3.140 3.130 3.120 3.108 3.096 3.084 3.071 3.058 3.044 3.031 3.017 3.002 2.988 2.973 2.958 2.944 2.929 2.914 2.900 2.885 2.871 2.857 2.843 2.829 2.816 2.803 2.790 2.778 2.765 2.754 2.742 2.731 2.721 2.710 2.701 2.691 2.682 2.674 2.665 2.658 2.650 2.643 2.637 2.630 2.624 2.619 2.613 2.609 2.604
2.561 2.567 2.572 2.578 2.585 2.591 2.598 2.606 2.614 2.623 2.631 2.641 2.650 2.661 2.671 2.683 2.694 2.706 2.719 2.732 2.745 2.759 2.773 2.788 2.803 2.818 2.833 2.849 2.865 2.882 2.898 2.915 2.931 2.948 2.965 2.982 2.998 3.015 3.031 3.047 3.063 3.078 3.093 3.108 3.122 3.135 3.148 3.160 3.172 3.182 3.192 3.202 3.210 3.217 3.224 3.229 3.234 3.237 3.240 3.241 3.242 3.241 3.240 3.237 3.234 3.229 3.224 3.217 3.210 3.202 3.192 3.182 3.172 3.160 3.148 3.135 3.121 3.107 3.093 3.078 3.062 3.047 3.031 3.014 2.998 2.981 2.965 2.948 2.931 2.914 2.898 2.881 2.865 2.849 2.833 2.818 2.802 2.788 2.773 2.759 2.745 2.732 2.719 2.706 2.694 2.683 2.671 2.661 2.650 2.641 2.631 2.622 2.614 2.606 2.598 2.591 2.585 2.578 2.572 2.567 2.561
2.520 2.526 2.532 2.539 2.546 2.554 2.562 2.570 2.579 2.589 2.599 2.610 2.621 2.632 2.644 2.657 2.670 2.684 2.698 2.713 2.728 2.744 2.760 2.776 2.793 2.811 2.828 2.846 2.865 2.883 2.902 2.921 2.940 2.959 2.977 2.996 3.015 3.034 3.052 3.071 3.088 3.106 3.123 3.139 3.155 3.170 3.185 3.199 3.212 3.224 3.236 3.246 3.255 3.264 3.271 3.277 3.283 3.287 3.290 3.291 3.292 3.291 3.290 3.287 3.283 3.277 3.271 3.264 3.255 3.246 3.236 3.224 3.212 3.199 3.185 3.170 3.155 3.139 3.123 3.106 3.088 3.070 3.052 3.034 3.015 2.996 2.977 2.958 2.939 2.920 2.901 2.883 2.864 2.846 2.828 2.810 2.793 2.776 2.760 2.744 2.728 2.713 2.698 2.684 2.670 2.657 2.644 2.632 2.621 2.610 2.599 2.589 2.579 2.570 2.562 2.554 2.546 2.539 2.532 2.526 2.520
2.479 2.486 2.493 2.500 2.509 2.517 2.526 2.536 2.546 2.557 2.569 2.581 2.593 2.606 2.620 2.634 2.649 2.665 2.681 2.698 2.715 2.732 2.751 2.769 2.789 2.808 2.828 2.849 2.869 2.890 2.911 2.933 2.954 2.976 2.997 3.018 3.040 3.061 3.082 3.102 3.122 3.142 3.161 3.180 3.198 3.215 3.232 3.248 3.262 3.276 3.289 3.301 3.311 3.321 3.329 3.336 3.342 3.347 3.350 3.352 3.353 3.352 3.350 3.347 3.342 3.336 3.329 3.321 3.311 3.301 3.289 3.276 3.262 3.248 3.232 3.215 3.198 3.180 3.161 3.142 3.122 3.102 3.081 3.061 3.039 3.018 2.997 2.975 2.954 2.932 2.911 2.890 2.869 2.848 2.828 2.808 2.788 2.769 2.750 2.732 2.715 2.697 2.681 2.665 2.649 2.634 2.620 2.606 2.593 2.581 2.569 2.557 2.546 2.536 2.526 2.517 2.509 2.500 2.493 2.486 2.479
2.439 2.447 2.455 2.463 2.473 2.482 2.493 2.504 2.515 2.528 2.540 2.554 2.568 2.583 2.598 2.615 2.631 2.649 2.667 2.686 2.705 2.725 2.746 2.767 2.789 2.811 2.833 2.856 2.880 2.903 2.927 2.951 2.976 3.000 3.024 3.048 3.072 3.096 3.120 3.143 3.166 3.188 3.210 3.231 3.251 3.270 3.289 3.307 3.323 3.339 3.354 3.367 3.379 3.390 3.399 3.407 3.414 3.419 3.423 3.425 3.425 3.425 3.423 3.419 3.414 3.407 3.399 3.390 3.379 3.367 3.354 3.339 3.323 3.307 3.289 3.270 3.251 3.230 3.209 3.188 3.165 3.142 3.119 3.096 3.072 3.048 3.023 2.999 2.975 2.951 2.927 2.903 2.879 2.856 2.833 2.810 2.788 2.767 2.746 2.725 2.705 2.686 2.667 2.649 2.631 2.615 2.598 2.583 2.568 2.554 2.540 2.528 2.515 2.504 2.493 2.482 2.473 2.463 2.455 2.447 2.439
2.400 2.409 2.418 2.428 2.438 2.449 2.461 2.473 2.486 2.500 2.514 2.530 2.546 2.562 2.580 2.598 2.617 2.637 2.657 2.678 2.700 2.723 2.746 2.770 2.794 2.819 2.844 2.870 2.897 2.923 2.950 2.977 3.004 3.032 3.059 3.086 3.113 3.140 3.167 3.193 3.218 3.243 3.268 3.292 3.314 3.336 3.357 3.377 3.396 3.414 3.430 3.445 3.458 3.471 3.481 3.490 3.498 3.503 3.508 3.510 3.511 3.510 3.508 3.503 3.498 3.490 3.481 3.471 3.458 3.445 3.430 3.414 3.396 3.377 3.357 3.336 3.314 3.291 3.268 3.243 3.218 3.192 3.166 3.139 3.113 3.086 3.058 3.031 3.004 2.976 2.949 2.922 2.896 2.870 2.844 2.818 2.794 2.769 2.745 2.722 2.700 2.678 2.657 2.637 2.617 2.598 2.580 2.562 2.546 2.530 2.514 2.500 2.486 2.473 2.461 2.449 2.438 2.428 2.418 2.409 2.400
2.362 2.372 2.382 2.393 2.405 2.417 2.431 2.444 2.459 2.475 2.491 2.508 2.526 2.545 2.564 2.585 2.606 2.628 2.651 2.675 2.699 2.725 2.751 2.778 2.805 2.833 2.862 2.891 2.920 2.950 2.980 3.011 3.041 3.072 3.103 3.133 3.164 3.194 3.223 3.253 3.282 3.310 3.337 3.364 3.389 3.414 3.438 3.460 3.481 3.501 3.519 3.536 3.551 3.565 3.576 3.587 3.595 3.602 3.606 3.609 3.610 3.609 3.606 3.602 3.595 3.587 3.576 3.565 3.551 3.536 3.519 3.501 3.481 3.460 3.437 3.414 3.389 3.363 3.337 3.309 3.281 3.252 3.223 3.193 3.163 3.132 3.102 3.071 3.040 3.010 2.979 2.949 2.919 2.890 2.861 2.832 2.804 2.777 2.750 2.724 2.699 2.675 2.651 2.628 2.606 2.585 2.564 2.545 2.526 2.508 2.491 2.475 2.459 2.444 2.431 2.417 2.405 2.393 2.382 2.372 2.362
2.326 2.337 2.348 2.361 2.374 2.388 2.402 2.418 2.434 2.452 2.470 2.489 2.509 2.530 2.552 2.575 2.599 2.624 2.649 2.676 2.703 2.732 2.761 2.791 2.822 2.853 2.885 2.918 2.951 2.984 3.018 3.052 3.087 3.121 3.155 3.190 3.224 3.257 3.291 3.323 3.356 3.387 3.418 3.448 3.476 3.504 3.530 3.555 3.579 3.601 3.622 3.640 3.657 3.673 3.686 3.697 3.707 3.714 3.719 3.722 3.723 3.722 3.719 3.714 3.707 3.697 3.686 3.673 3.657 3.640 3.622 3.601 3.579 3.555 3.530 3.504 3.476 3.447 3.417 3.386 3.355 3.323 3.290 3.256 3.222 3.188 3.154 3.120 3.085 3.051 3.017 2.983 2.950 2.917 2.884 2.852 2.821 2.790 2.760 2.731 2.703 2.676 2.649 2.623 2.599 2.575 2.552 2.530 2.509 2.489 2.470 2.452 2.434 2.418 2.402 2.388 2.374 2.361 2.348 2.337 2.326
2.291 2.303 2.316 2.329 2.344 2.360 2.376 2.393 2.412 2.431 2.451 2.473 2.495 2.519 2.543 2.569 2.596 2.623 2.652 2.682 2.713 2.744 2.777 2.811 2.845 2.880 2.916 2.952 2.989 3.027 3.065 3.103 3.141 3.179 3.218 3.256 3.294 3.332 3.369 3.406 3.441 3.477 3.511 3.544 3.576 3.607 3.637 3.664 3.691 3.716 3.738 3.759 3.779 3.795 3.810 3.823 3.834 3.842 3.848 3.851 3.852 3.851 3.848 3.842 3.833 3.823 3.810 3.795 3.778 3.759 3.738 3.715 3.691 3.664 3.636 3.607 3.576 3.543 3.510 3.476 3.440 3.404 3.367 3.330 3.292 3.254 3.216 3.177 3.139 3.101 3.063 3.025 2.988 2.951 2.914 2.879 2.844 2.810 2.776 2.744 2.712 2.681 2.652 2.623 2.595 2.569 2.543 2.519 2.495 2.473 2.451 2.431 2.412 2.393 2.376 2.360 2.344 2.329 2.316 2.303 2.291
2.257 2.270 2.285 2.300 2.316 2.334 2.352 2.371 2.392 2.413 2.436 2.460 2.485 2.511 2.538 2.567 2.597 2.628 2.660 2.693 2.727 2.763 2.799 2.836 2.875 2.914 2.954 2.994 3.036 3.078 3.120 3.162 3.205 3.248 3.290 3.333 3.375 3.417 3.459 3.500 3.540 3.579 3.617 3.654 3.690 3.724 3.757 3.788 3.817 3.845 3.870 3.894 3.915 3.934 3.951 3.965 3.976 3.985 3.992 3.996 3.997 3.996 3.992 3.985 3.976 3.965 3.950 3.934 3.915 3.894 3.870 3.845 3.817 3.788 3.756 3.723 3.689 3.653 3.616 3.578 3.538 3.498 3.457 3.415 3.373 3.331 3.288 3.245 3.202 3.160 3.117 3.075 3.034 2.992 2.952 2.912 2.873 2.835 2.798 2.762 2.726 2.692 2.659 2.627 2.596 2.567 2.538 2.511 2.485 2.460 2.436 2.413 2.392 2.371 2.352 2.334 2.316 2.300 2.285 2.270 2.257
2.224 2.239 2.255 2.272 2.290 2.310 2.330 2.351 2.374 2.398 2.423 2.450 2.478 2.507 2.537 2.569 2.602 2.637 2.672 2.709 2.747 2.787 2.827 2.869 2.911 2.955 2.999 3.045 3.091 3.137 3.184 3.231 3.279 3.326 3.374 3.421 3.468 3.515 3.561 3.606 3.651 3.694 3.736 3.778 3.817 3.855 3.892 3.927 3.959 3.990 4.018 4.044 4.068 4.089 4.107 4.123 4.136 4.146 4.153 4.158 4.159 4.158 4.153 4.146 4.136 4.123 4.107 4.089 4.068 4.044 4.018 3.990 3.959 3.926 3.891 3.855 3.816 3.777 3.735 3.693 3.649 3.604 3.558 3.512 3.465 3.418 3.371 3.323 3.275 3.228 3.181 3.134 3.088 3.042 2.997 2.953 2.910 2.867 2.826 2.786 2.746 2.708 2.672 2.636 2.602 2.569 2.537 2.507 2.478 2.450 2.423 2.398 2.374 2.351 2.330 2.310 2.290 2.272 2.255 2.239 2.224
2.193 2.210 2.228 2.246 2.267 2.288 2.310 2.334 2.360 2.386 2.414 2.444 2.474 2.507 2.540 2.576 2.612 2.650 2.690 2.731 2.773 2.817 2.862 2.908 2.956 3.004 3.053 3.103 3.154 3.206 3.258 3.310 3.363 3.416 3.468 3.521 3.573 3.625 3.676 3.726 3.775 3.823 3.870 3.916 3.960 4.002 4.042 4.081 4.117 4.151 4.182 4.211 4.237 4.261 4.281 4.298 4.313 4.324 4.332 4.337 4.339 4.337 4.332 4.324 4.313 4.298 4.281 4.261 4.237 4.211 4.182 4.151 4.117 4.080 4.042 4.001 3.959 3.914 3.869 3.821 3.773 3.723 3.673 3.621 3.569 3.517 3.464 3.412 3.359 3.306 3.254 3.202 3.151 3.100 3.050 3.001 2.953 2.906 2.860 2.816 2.772 2.730 2.689 2.650 2.612 2.575 2.540 2.507 2.474 2.443 2.414 2.386 2.360 2.334 2.310 2.288 2.267 2.246 2.228 2.210 2.193
2.164 2.182 2.202 2.223 2.245 2.268 2.293 2.320 2.348 2.377 2.408 2.441 2.475 2.510 2.548 2.587 2.627 2.670 2.713 2.759 2.806 2.854 2.904 2.955 3.007 3.061 3.116 3.171 3.227 3.285 3.342 3.400 3.458 3.517 3.575 3.633 3.690 3.748 3.804 3.859 3.914 3.967 4.019 4.069 4.118 4.164 4.209 4.252 4.292 4.329 4.364 4.396 4.425 4.450 4.473 4.492 4.508 4.520 4.529 4.535 4.537 4.535 4.529 4.520 4.508 4.492 4.473 4.450 4.424 4.395 4.363 4.329 4.291 4.251 4.208 4.163 4.116 4.067 4.017 3.964 3.911 3.856 3.800 3.743 3.686 3.628 3.570 3.511 3.453 3.395 3.337 3.280 3.223 3.167 3.112 3.057 3.004 2.952 2.902 2.852 2.804 2.758 2.712 2.669 2.627 2.586 2.547 2.510 2.475 2.440 2.408 2.377 2.348 2.320 2.293 2.268 2.245 2.223 2.202 2.182 2.164
2.136 2.156 2.178 2.201 2.225 2.251 2.279 2.308 2.339 2.371 2.405 2.441 2.479 2.518 2.559 2.602 2.647 2.694 2.742 2.792 2.844 2.898 2.953 3.009 3.067 3.126 3.186 3.248 3.310 3.373 3.437 3.501 3.565 3.629 3.694 3.757 3.821 3.884 3.946 4.007 4.067 4.126 4.183 4.238 4.292 4.343 4.392 4.439 4.483 4.525 4.563 4.598 4.630 4.658 4.683 4.705 4.722 4.736 4.746 4.752 4.753 4.751 4.746 4.736 4.722 4.704 4.683 4.658 4.630 4.598 4.563 4.524 4.483 4.438 4.391 4.342 4.290 4.236 4.180 4.122 4.063 4.003 3.941 3.878 3.815 3.751 3.687 3.622 3.558 3.494 3.430 3.367 3.304 3.242 3.181 3.122 3.063 3.006 2.950 2.895 2.842 2.791 2.741 2.693 2.647 2.602 2.559 2.518 2.479 2.441 2.405 2.371 2.339 2.308 2.279 2.251 2.225 2.201 2.178 2.156 2.136
2.110 2.132 2.156 2.181 2.208 2.236 2.267 2.299 2.333 2.368 2.406 2.446 2.487 2.530 2.576 2.623 2.672 2.724 2.777 2.832 2.889 2.948 3.009 3.071 3.135 3.200 3.267 3.334 3.403 3.472 3.542 3.613 3.683 3.754 3.825 3.895 3.965 4.034 4.102 4.169 4.235 4.300 4.362 4.423 4.482 4.539 4.593 4.644 4.693 4.738 4.780 4.819 4.854 4.885 4.913 4.936 4.955 4.970 4.981 4.988 4.990 4.988 4.981 4.970 4.955 4.936 4.913 4.885 4.854 4.819 4.780 4.738 4.692 4.643 4.591 4.537 4.480 4.420 4.359 4.295 4.230 4.164 4.096 4.027 3.957 3.887 3.816 3.745 3.674 3.604 3.534 3.464 3.395 3.327 3.260 3.194 3.130 3.067 3.005 2.945 2.887 2.830 2.776 2.723 2.672 2.622 2.575 2.530 2.487 2.445 2.406 2.368 2.333 2.299 2.267 2.236 2.208 2.181 2.156 2.132 2.110
2.085 2.109 2.135 2.163 2.193 2.224 2.257 2.293 2.330 2.369 2.410 2.454 2.499 2.547 2.597 2.649 2.703 2.759 2.818 2.878 2.941 3.006 3.072 3.141 3.211 3.283 3.356 3.430 3.506 3.582 3.659 3.736 3.814 3.892 3.969 4.046 4.123 4.198 4.273 4.347 4.419 4.489 4.558 4.625 4.689 4.751 4.811 4.867 4.920 4.970 5.016 5.059 5.097 5.132 5.162 5.187 5.208 5.225 5.237 5.244 5.246 5.244 5.237 5.225 5.208 5.187 5.161 5.131 5.097 5.058 5.016 4.969 4.919 4.866 4.809 4.749 4.686 4.621 4.554 4.484 4.412 4.339 4.265 4.189 4.113 4.036 3.958 3.880 3.802 3.725 3.648 3.571 3.496 3.421 3.348 3.275 3.205 3.135 3.068 3.002 2.938 2.876 2.816 2.758 2.702 2.648 2.596 2.546 2.499 2.453 2.410 2.369 2.330 2.293 2.257 2.224 2.193 2.163 2.135 2.109 2.085
2.062 2.089 2.117 2.148 2.180 2.214 2.251 2.289 2.330 2.373 2.418 2.466 2.516 2.568 2.622 2.679 2.739 2.800 2.864 2.931 3.000 3.071 3.144 3.219 3.296 3.375 3.455 3.536 3.619 3.703 3.787 3.872 3.957 4.042 4.127 4.211 4.295 4.377 4.459 4.539 4.618 4.695 4.770 4.843 4.914 4.982 5.046 5.108 5.166 5.221 5.271 5.318 5.360 5.397 5.430 5.458 5.482 5.500 5.513 5.520 5.523 5.520 5.513 5.500 5.481 5.458 5.430 5.397 5.359 5.317 5.271 5.220 5.165 5.106 5.044 4.979 4.910 4.839 4.765 4.688 4.610 4.530 4.448 4.366 4.282 4.197 4.113 4.027 3.942 3.857 3.773 3.689 3.607 3.525 3.444 3.365 3.288 3.212 3.138 3.066 2.996 2.928 2.862 2.799 2.737 2.678 2.622 2.567 2.515 2.465 2.418 2.373 2.330 2.289 2.251 2.214 2.180 2.148 2.117 2.089 2.062
2.041 2.070 2.101 2.134 2.170 2.207 2.247 2.289 2.333 2.380 2.430 2.482 2.536 2.593 2.653 2.715 2.780 2.847 2.917 2.990 3.065 3.143 3.223 3.305 3.389 3.476 3.563 3.653 3.743 3.835 3.927 4.020 4.112 4.205 4.298 4.390 4.481 4.571 4.660 4.748 4.833 4.917 4.999 5.079 5.156 5.230 5.300 5.367 5.431 5.490 5.545 5.596 5.642 5.683 5.719 5.750 5.775 5.795 5.809 5.817 5.820 5.817 5.809 5.795 5.775 5.749 5.719 5.683 5.641 5.595 5.544 5.489 5.429 5.365 5.297 5.226 5.151 5.073 4.992 4.909 4.823 4.736 4.647 4.556 4.465 4.373 4.280 4.187 4.094 4.001 3.909 3.818 3.727 3.638 3.550 3.464 3.379 3.297 3.216 3.137 3.060 2.986 2.914 2.845 2.778 2.714 2.652 2.592 2.536 2.481 2.429 2.380 2.333 2.289 2.247 2.207 2.170 2.134 2.101 2.070 2.041
2.021 2.053 2.087 2.123 2.162 2.202 2.246 2.292 2.340 2.391 2.445 2.501 2.561 2.623 2.688 2.756 2.826 2.900 2.977 3.056 3.138 3.223 3.310 3.400 3.492 3.586 3.682 3.779 3.878 3.978 4.079 4.180 4.281 4.382 4.482 4.582 4.682 4.780 4.876 4.971 5.065 5.156 5.245 5.331 5.415 5.495 5.572 5.645 5.714 5.779 5.839 5.894 5.944 5.988 6.027 6.061 6.088 6.110 6.125 6.135 6.138 6.135 6.125 6.110 6.088 6.061 6.027 5.988 5.943 5.893 5.837 5.777 5.712 5.642 5.568 5.490 5.409 5.324 5.236 5.145 5.052 4.957 4.860 4.761 4.662 4.561 4.460 4.359 4.258 4.157 4.056 3.957 3.858 3.761 3.665 3.571 3.479 3.389 3.301 3.215 3.132 3.051 2.973 2.897 2.824 2.754 2.687 2.622 2.560 2.501 2.445 2.391 2.340 2.291 2.246 2.202 2.162 2.123 2.087 2.053 2.021
2.003 2.038 2.075 2.114 2.156 2.200 2.247 2.297 2.350 2.405 2.464 2.525 2.589 2.657 2.728 2.801 2.878 2.959 3.042 3.128 3.218 3.310 3.405 3.503 3.603 3.706 3.810 3.917 4.024 4.133 4.242 4.352 4.462 4.572 4.681 4.789 4.897 5.003 5.108 5.211 5.312 5.411 5.507 5.601 5.691 5.778 5.862 5.941 6.016 6.086 6.151 6.211 6.265 6.313 6.356 6.392 6.422 6.445 6.462 6.472 6.476 6.472 6.462 6.445 6.422 6.392 6.356 6.313 6.264 6.210 6.149 6.084 6.013 5.937 5.857 5.772 5.684 5.591 5.496 5.397 5.296 5.192 5.087 4.980 4.872 4.763 4.653 4.543 4.433 4.323 4.214 4.106 3.999 3.894 3.790 3.687 3.587 3.489 3.394 3.301 3.210 3.122 3.037 2.955 2.876 2.799 2.726 2.656 2.589 2.525 2.463 2.405 2.350 2.297 2.247 2.200 2.156 2.114 2.075 2.038 2.003
1.987 2.024 2.064 2.107 2.152 2.200 2.251 2.305 2.362 2.423 2.486 2.552 2.622 2.696 2.772 2.852 2.936 3.023 3.113 3.207 3.304 3.405 3.508 3.614 3.724 3.835 3.949 4.064 4.181 4.299 4.418 4.537 4.656 4.775 4.893 5.011 5.127 5.242 5.355 5.466 5.575 5.682 5.786 5.887 5.985 6.079 6.169 6.255 6.336 6.411 6.482 6.547 6.605 6.658 6.704 6.743 6.776 6.801 6.819 6.830 6.834 6.830 6.819 6.801 6.775 6.743 6.703 6.657 6.605 6.545 6.480 6.409 6.332 6.250 6.163 6.071 5.975 5.875 5.772 5.665 5.555 5.443 5.329 5.213 5.096 4.977 4.858 4.739 4.620 4.501 4.383 4.266 4.150 4.035 3.923 3.812 3.704 3.597 3.494 3.393 3.295 3.200 3.107 3.018 2.932 2.850 2.770 2.694 2.621 2.552 2.485 2.422 2.362 2.305 2.251 2.200 2.152 2.107 2.064 2.024 1.987
1.972 2.013 2.056 2.102 2.151 2.203 2.258 2.317 2.378 2.443 2.512 2.584 2.659 2.739 2.821 2.908 2.999 3.093 3.191 3.292 3.398 3.507 3.619 3.734 3.853 3.974 4.097 4.222 4.349 4.477 4.606 4.734 4.863 4.992 5.119 5.246 5.371 5.495 5.617 5.737 5.854 5.969 6.081 6.190 6.295 6.397 6.494 6.586 6.673 6.755 6.831 6.901 6.965 7.021 7.071 7.113 7.148 7.176 7.195 7.207 7.211 7.207 7.195 7.176 7.148 7.113 7.070 7.021 6.964 6.900 6.829 6.752 6.669 6.580 6.486 6.387 6.283 6.175 6.063 5.948 5.829 5.708 5.585 5.459 5.333 5.205 5.076 4.947 4.818 4.690 4.562 4.436 4.310 4.187 4.065 3.945 3.828 3.713 3.601 3.492 3.386 3.283 3.183 3.087 2.994 2.905 2.819 2.737 2.658 2.583 2.511 2.443 2.378 2.316 2.258 2.203 2.151 2.102 2.056 2.013 1.972
1.959 2.003 2.049 2.099 2.152 2.208 2.267 2.330 2.397 2.467 2.541 2.619 2.700 2.786 2.875 2.969 3.066 3.168 3.274 3.384 3.498 3.616 3.737 3.862 3.990 4.122 4.255 4.391 4.528 4.666 4.805 4.944 5.083 5.222 5.359 5.495 5.630 5.763 5.894 6.022 6.148 6.272 6.392 6.509 6.622 6.731 6.835 6.934 7.028 7.116 7.198 7.274 7.342 7.403 7.457 7.502 7.540 7.569 7.591 7.603 7.608 7.603 7.590 7.569 7.540 7.502 7.456 7.402 7.341 7.272 7.195 7.113 7.023 6.927 6.826 6.719 6.607 6.491 6.370 6.245 6.118 5.987 5.854 5.719 5.582 5.444 5.306 5.167 5.028 4.889 4.752 4.615 4.480 4.347 4.215 4.086 3.960 3.836 3.715 3.598 3.483 3.372 3.265 3.161 3.061 2.965 2.872 2.784 2.699 2.618 2.540 2.467 2.397 2.330 2.267 2.208 2.152 2.099 2.049 2.003 1.959
1.947 1.994 2.045 2.098 2.155 2.215 2.279 2.347 2.418 2.494 2.573 2.657 2.745 2.837 2.933 3.034 3.139 3.249 3.363 3.482 3.605 3.732 3.863 3.998 4.137 4.279 4.423 4.569 4.717 4.867 5.017 5.167 5.316 5.465 5.612 5.758 5.903 6.045 6.185 6.323 6.458 6.589 6.718 6.843 6.964 7.081 7.193 7.299 7.400 7.494 7.582 7.663 7.736 7.802 7.860 7.909 7.949 7.981 8.004 8.017 8.022 8.017 8.004 7.981 7.949 7.908 7.859 7.801 7.735 7.661 7.579 7.490 7.393 7.290 7.181 7.066 6.946 6.821 6.691 6.557 6.420 6.279 6.136 5.991 5.844 5.695 5.546 5.397 5.248 5.099 4.951 4.804 4.658 4.515 4.374 4.235 4.099 3.966 3.836 3.710 3.587 3.467 3.352 3.240 3.133 3.029 2.930 2.834 2.743 2.656 2.572 2.493 2.418 2.347 2.279 2.215 2.155 2.098 2.045 1.994 1.947
1.937 1.988 2.041 2.099 2.160 2.224 2.293 2.366 2.442 2.523 2.609 2.698 2.793 2.891 2.995 3.103 3.216 3.334 3.457 3.585 3.718 3.855 3.996 4.142 4.292 4.444 4.600 4.758 4.918 5.078 5.240 5.401 5.561 5.721 5.879 6.035 6.189 6.341 6.490 6.637 6.781 6.922 7.059 7.192 7.321 7.446 7.565 7.679 7.787 7.888 7.982 8.069 8.147 8.217 8.279 8.332 8.375 8.409 8.434 8.448 8.453 8.448 8.433 8.409 8.375 8.331 8.278 8.216 8.145 8.066 7.978 7.882 7.779 7.669 7.551 7.428 7.299 7.165 7.025 6.882 6.734 6.584 6.430 6.274 6.117 5.958 5.798 5.637 5.477 5.317 5.159 5.001 4.845 4.691 4.540 4.391 4.245 4.102 3.963 3.827 3.695 3.568 3.444 3.324 3.209 3.097 2.991 2.888 2.790 2.697 2.608 2.523 2.442 2.365 2.293 2.224 2.160 2.099 2.041 1.988 1.937
1.928 1.982 2.040 2.101 2.166 2.236 2.309 2.387 2.469 2.555 2.647 2.743 2.844 2.950 3.061 3.177 3.298 3.425 3.557 3.694 3.837 3.984 4.137 4.293 4.454 4.619 4.787 4.957 5.128 5.301 5.474 5.647 5.819 5.989 6.158 6.324 6.489 6.650 6.809 6.965 7.118 7.267 7.413 7.555 7.692 7.825 7.952 8.073 8.188 8.296 8.396 8.489 8.573 8.648 8.714 8.770 8.817 8.853 8.879 8.895 8.900 8.895 8.879 8.853 8.816 8.769 8.713 8.646 8.570 8.485 8.391 8.289 8.179 8.060 7.935 7.803 7.665 7.521 7.372 7.219 7.061 6.900 6.735 6.569 6.400 6.230 6.059 5.887 5.716 5.545 5.375 5.206 5.040 4.875 4.713 4.554 4.398 4.245 4.096 3.951 3.810 3.673 3.540 3.412 3.289 3.170 3.055 2.946 2.841 2.741 2.646 2.555 2.468 2.386 2.309 2.235 2.166 2.101 2.040 1.982 1.928
1.920 1.978 2.039 2.105 2.175 2.248 2.327 2.410 2.497 2.590 2.687 2.790 2.898 3.011 3.130 3.254 3.384 3.520 3.661 3.808 3.961 4.120 4.283 4.452 4.625 4.802 4.982 5.165 5.349 5.534 5.719 5.904 6.088 6.269 6.449 6.626 6.801 6.972 7.140 7.306 7.467 7.626 7.780 7.930 8.076 8.217 8.352 8.480 8.603 8.717 8.824 8.923 9.012 9.092 9.162 9.222 9.272 9.311 9.338 9.355 9.361 9.355 9.338 9.310 9.271 9.221 9.161 9.090 9.009 8.918 8.818 8.709 8.591 8.465 8.331 8.190 8.043 7.890 7.731 7.567 7.398 7.226 7.051 6.873 6.693 6.511 6.329 6.146 5.963 5.780 5.599 5.419 5.241 5.065 4.892 4.722 4.556 4.393 4.234 4.079 3.928 3.782 3.641 3.504 3.372 3.245 3.123 3.007 2.895 2.788 2.686 2.589 2.497 2.409 2.327 2.248 2.174 2.105 2.039 1.978 1.920
1.914 1.975 2.040 2.110 2.184 2.263 2.346 2.435 2.528 2.627 2.730 2.840 2.955 3.075 3.202 3.335 3.473 3.618 3.770 3.927 4.091 4.261 4.436 4.617 4.803 4.993 5.186 5.382 5.579 5.777 5.975 6.173 6.368 6.561 6.752 6.940 7.124 7.306 7.484 7.658 7.829 7.996 8.159 8.317 8.471 8.620 8.763 8.899 9.029 9.150 9.264 9.368 9.463 9.548 9.623 9.687 9.739 9.781 9.810 9.828 9.834 9.828 9.810 9.780 9.739 9.686 9.621 9.546 9.459 9.363 9.256 9.140 9.014 8.880 8.738 8.588 8.431 8.268 8.098 7.924 7.745 7.562 7.375 7.185 6.994 6.800 6.606 6.411 6.217 6.022 5.829 5.638 5.448 5.261 5.077 4.896 4.719 4.546 4.376 4.211 4.051 3.895 3.745 3.599 3.459 3.324 3.194 3.070 2.951 2.837 2.729 2.625 2.527 2.434 2.346 2.263 2.184 2.110 2.040 1.975 1.914
1.908 1.973 2.042 2.116 2.195 2.279 2.367 2.461 2.560 2.665 2.775 2.891 3.014 3.142 3.277 3.418 3.566 3.720 3.882 4.050 4.225 4.407 4.595 4.789 4.988 5.191 5.398 5.607 5.819 6.030 6.242 6.452 6.659 6.864 7.066 7.265 7.459 7.650 7.838 8.021 8.200 8.376 8.547 8.714 8.876 9.033 9.183 9.328 9.464 9.593 9.713 9.824 9.924 10.014 10.094 10.161 10.217 10.261 10.292 10.311 10.317 10.311 10.292 10.260 10.216 10.160 10.091 10.011 9.920 9.817 9.704 9.580 9.447 9.305 9.154 8.994 8.828 8.654 8.475 8.289 8.099 7.905 7.706 7.505 7.302 7.096 6.890 6.683 6.476 6.270 6.065 5.862 5.661 5.462 5.267 5.075 4.886 4.702 4.522 4.347 4.177 4.012 3.852 3.698 3.549 3.405 3.268 3.135 3.009 2.888 2.773 2.663 2.559 2.460 2.367 2.278 2.195 2.116 2.042 1.973 1.908
1.902 1.971 2.045 2.123 2.207 2.295 2.389 2.488 2.594 2.704 2.821 2.945 3.074 3.211 3.354 3.504 3.661 3.826 3.998 4.177 4.364 4.558 4.759 4.966 5.179 5.396 5.618 5.841 6.067 6.293 6.518 6.741 6.961 7.178 7.391 7.600 7.805 8.005 8.201 8.393 8.581 8.765 8.945 9.120 9.290 9.454 9.612 9.764 9.908 10.044 10.170 10.287 10.393 10.489 10.572 10.644 10.703 10.749 10.782 10.802 10.809 10.802 10.782 10.748 10.702 10.642 10.570 10.485 10.388 10.279 10.159 10.028 9.887 9.736 9.576 9.408 9.231 9.048 8.857 8.661 8.460 8.254 8.044 7.831 7.615 7.398 7.179 6.960 6.741 6.523 6.306 6.090 5.877 5.667 5.460 5.257 5.057 4.862 4.672 4.486 4.306 4.131 3.962 3.798 3.640 3.489 3.343 3.203 3.069 2.941 2.819 2.703 2.592 2.488 2.389 2.295 2.207 2.123 2.045 1.971 1.902
1.898 1.971 2.048 2.131 2.219 2.313 2.412 2.517 2.628 2.745 2.869 2.999 3.136 3.281 3.432 3.591 3.758 3.933 4.116 4.307 4.506 4.713 4.927 5.149 5.376 5.608 5.844 6.083 6.324 6.564 6.803 7.039 7.272 7.501 7.726 7.945 8.159 8.369 8.574 8.774 8.970 9.162 9.349 9.532 9.709 9.881 10.047 10.206 10.357 10.500 10.633 10.756 10.868 10.968 11.057 11.132 11.194 11.243 11.278 11.299 11.306 11.299 11.278 11.242 11.193 11.130 11.054 10.964 10.861 10.747 10.620 10.482 10.333 10.173 10.004 9.826 9.640 9.446 9.245 9.037 8.825 8.607 8.385 8.160 7.932 7.703 7.472 7.241 7.009 6.779 6.549 6.322 6.097 5.875 5.656 5.441 5.230 5.024 4.823 4.627 4.437 4.252 4.073 3.900 3.734 3.573 3.419 3.271 3.130 2.995 2.866 2.743 2.627 2.516 2.411 2.312 2.219 2.131 2.048 1.971 1.898
1.893 1.970 2.052 2.139 2.232 2.331 2.435 2.546 2.663 2.786 2.917 3.054 3.199 3.352 3.512 3.680 3.857 4.042 4.237 4.440 4.651 4.872 5.100 5.336 5.578 5.826 6.078 6.332 6.588 6.843 7.097 7.347 7.593 7.834 8.069 8.299 8.522 8.741 8.954 9.162 9.366 9.565 9.759 9.949 10.134 10.313 10.486 10.652 10.810 10.960 11.099 11.228 11.346 11.451 11.544 11.624 11.689 11.741 11.777 11.800 11.807 11.799 11.777 11.740 11.688 11.621 11.541 11.446 11.338 11.217 11.084 10.938 10.781 10.613 10.435 10.247 10.051 9.847 9.635 9.416 9.192 8.963 8.729 8.492 8.252 8.010 7.767 7.523 7.279 7.036 6.794 6.555 6.318 6.084 5.853 5.627 5.405 5.188 4.976 4.769 4.568 4.374 4.185 4.003 3.828 3.659 3.496 3.341 3.192 3.049 2.913 2.784 2.661 2.545 2.434 2.330 2.232 2.139 2.052 1.970 1.893
1.889 1.969 2.056 2.147 2.245 2.348 2.458 2.575 2.698 2.828 2.965 3.110 3.263 3.423 3.592 3.770 3.957 4.153 4.359 4.574 4.799 5.033 5.276 5.527 5.785 6.049 6.317 6.588 6.860 7.131 7.399 7.663 7.922 8.174 8.421 8.660 8.893 9.119 9.340 9.555 9.766 9.972 10.173 10.369 10.561 10.747 10.927 11.100 11.265 11.421 11.567 11.702 11.825 11.935 12.032 12.116 12.185 12.238 12.277 12.300 12.308 12.300 12.277 12.237 12.183 12.113 12.028 11.929 11.815 11.688 11.548 11.395 11.230 11.053 10.866 10.669 10.463 10.248 10.025 9.796 9.560 9.319 9.073 8.824 8.572 8.318 8.062 7.806 7.549 7.294 7.040 6.788 6.539 6.293 6.051 5.813 5.579 5.351 5.128 4.911 4.700 4.496 4.298 4.106 3.922 3.744 3.574 3.410 3.253 3.104 2.961 2.825 2.696 2.574 2.458 2.348 2.245 2.147 2.055 1.969 1.889
1.884 1.969 2.059 2.155 2.257 2.366 2.481 2.603 2.733 2.869 3.013 3.165 3.326 3.494 3.672 3.860 4.057 4.264 4.481 4.709 4.948 5.197 5.455 5.722 5.997 6.277 6.563 6.850 7.138 7.425 7.708 7.987 8.258 8.523 8.780 9.029 9.270 9.504 9.731 9.953 10.169 10.381 10.588 10.791 10.989 11.181 11.367 11.547 11.718 11.880 12.032 12.173 12.301 12.417 12.519 12.606 12.678 12.734 12.775 12.799 12.807 12.799 12.774 12.733 12.676 12.602 12.514 12.410 12.291 12.157 12.010 11.850 11.677 11.492 11.295 11.089 10.872 10.647 10.414 10.173 9.926 9.673 9.416 9.155 8.890 8.624 8.356 8.087 7.818 7.551 7.284 7.020 6.759 6.501 6.247 5.998 5.753 5.514 5.280 5.053 4.832 4.617 4.410 4.209 4.015 3.829 3.650 3.479 3.315 3.158 3.008 2.866 2.730 2.602 2.480 2.366 2.257 2.155 2.059 1.969 1.884
1.879 1.968 2.062 2.162 2.269 2.383 2.504 2.631 2.766 2.909 3.060 3.220 3.388 3.565 3.752 3.949 4.156 4.375 4.604 4.846 5.098 5.362 5.636 5.919 6.211 6.510 6.813 7.118 7.423 7.726 8.025 8.317 8.602 8.878 9.145 9.403 9.652 9.893 10.126 10.353 10.575 10.791 11.004 11.211 11.415 11.613 11.805 11.990 12.167 12.335 12.493 12.640 12.773 12.894 13.000 13.091 13.166 13.225 13.267 13.292 13.301 13.292 13.266 13.223 13.163 13.087 12.994 12.885 12.761 12.621 12.467 12.300 12.119 11.925 11.720 11.504 11.278 11.042 10.798 10.546 10.288 10.024 9.755 9.481 9.205 8.926 8.646 8.365 8.084 7.804 7.526 7.250 6.976 6.707 6.441 6.180 5.925 5.674 5.430 5.192 4.961 4.737 4.520 4.310 4.108 3.913 3.726 3.547 3.375 3.211 3.054 2.905 2.764 2.630 2.503 2.382 2.269 2.162 2.062 1.967 1.879
1.873 1.966 2.064 2.169 2.281 2.399 2.525 2.658 2.799 2.948 3.106 3.273 3.448 3.634 3.830 4.037 4.255 4.485 4.727 4.981 5.248 5.528 5.818 6.119 6.429 6.746 7.067 7.391 7.714 8.034 8.348 8.655 8.953 9.240 9.516 9.782 10.038 10.285 10.523 10.754 10.980 11.200 11.417 11.629 11.836 12.039 12.237 12.427 12.610 12.784 12.947 13.099 13.238 13.363 13.473 13.567 13.645 13.707 13.751 13.777 13.786 13.777 13.750 13.705 13.643 13.563 13.466 13.352 13.223 13.077 12.917 12.742 12.553 12.351 12.137 11.912 11.676 11.430 11.176 10.913 10.644 10.368 10.087 9.802 9.514 9.223 8.931 8.638 8.345 8.053 7.763 7.475 7.190 6.909 6.632 6.359 6.093 5.832 5.577 5.329 5.088 4.854 4.628 4.409 4.198 3.995 3.800 3.612 3.433 3.262 3.099 2.944 2.796 2.656 2.524 2.398 2.280 2.169 2.064 1.966 1.873
1.867 1.963 2.065 2.174 2.290 2.414 2.545 2.683 2.830 2.986 3.150 3.324 3.507 3.701 3.906 4.123 4.351 4.593 4.848 5.116 5.398 5.693 6.001 6.320 6.649 6.985 7.325 7.668 8.009 8.347 8.677 8.998 9.309 9.607 9.893 10.166 10.427 10.678 10.920 11.155 11.383 11.606 11.826 12.041 12.252 12.459 12.660 12.856 13.044 13.222 13.391 13.548 13.691 13.821 13.935 14.033 14.114 14.178 14.223 14.251 14.260 14.250 14.222 14.176 14.111 14.028 13.927 13.809 13.674 13.522 13.355 13.173 12.977 12.767 12.545 12.310 12.065 11.809 11.544 11.271 10.991 10.704 10.412 10.116 9.816 9.513 9.209 8.904 8.599 8.296 7.994 7.694 7.397 7.105 6.817 6.534 6.256 5.985 5.720 5.462 5.211 4.968 4.732 4.504 4.285 4.074 3.871 3.676 3.490 3.312 3.142 2.980 2.827 2.681 2.543 2.413 2.290 2.174 2.065 1.963 1.867
1.859 1.958 2.065 2.178 2.298 2.426 2.562 2.706 2.859 3.021 3.191 3.372 3.563 3.765 3.979 4.206 4.445 4.699 4.967 5.249 5.547 5.859 6.184 6.522 6.870 7.226 7.587 7.949 8.309 8.664 9.011 9.347 9.670 9.979 10.273 10.552 10.819 11.073 11.317 11.553 11.783 12.008 12.228 12.445 12.659 12.869 13.074 13.273 13.465 13.649 13.822 13.983 14.131 14.265 14.383 14.484 14.568 14.634 14.681 14.710 14.719 14.709 14.680 14.631 14.564 14.478 14.373 14.251 14.111 13.954 13.780 13.592 13.388 13.170 12.939 12.696 12.441 12.176 11.901 11.618 11.327 11.029 10.726 10.418 10.107 9.793 9.478 9.161 8.845 8.530 8.217 7.906 7.598 7.294 6.995 6.702 6.414 6.132 5.857 5.589 5.329 5.076 4.832 4.596 4.368 4.149 3.938 3.736 3.543 3.358 3.182 3.014 2.855 2.704 2.561 2.425 2.298 2.178 2.064 1.958 1.859
1.849 1.952 2.062 2.180 2.304 2.437 2.578 2.727 2.885 3.053 3.230 3.417 3.616 3.826 4.049 4.286 4.536 4.802 5.083 5.380 5.693 6.023 6.367 6.724 7.092 7.469 7.851 8.233 8.613 8.987 9.350 9.701 10.036 10.354 10.656 10.941 11.211 11.467 11.712 11.948 12.177 12.402 12.622 12.840 13.055 13.266 13.474 13.676 13.872 14.059 14.237 14.402 14.554 14.692 14.813 14.918 15.004 15.072 15.121 15.151 15.160 15.150 15.120 15.070 15.000 14.911 14.802 14.676 14.531 14.368 14.189 13.993 13.782 13.557 13.318 13.066 12.802 12.528 12.243 11.950 11.649 11.341 11.027 10.709 10.387 10.062 9.735 9.408 9.081 8.754 8.430 8.108 7.790 7.475 7.166 6.862 6.564 6.272 5.988 5.711 5.441 5.180 4.927 4.682 4.447 4.220 4.002 3.793 3.592 3.401 3.219 3.045 2.881 2.724 2.576 2.436 2.304 2.179 2.062 1.952 1.849
1.838 1.945 2.058 2.179 2.308 2.445 2.590 2.745 2.908 3.081 3.265 3.459 3.665 3.883 4.115 4.361 4.623 4.901 5.195 5.507 5.837 6.184 6.548 6.925 7.315 7.713 8.117 8.521 8.921 9.313 9.693 10.058 10.405 10.733 11.041 11.330 11.602 11.859 12.103 12.338 12.565 12.787 13.006 13.222 13.437 13.649 13.858 14.063 14.261 14.452 14.633 14.802 14.958 15.099 15.223 15.331 15.420 15.490 15.540 15.571 15.581 15.570 15.539 15.487 15.415 15.323 15.211 15.080 14.930 14.763 14.577 14.376 14.158 13.925 13.678 13.418 13.146 12.863 12.569 12.266 11.955 11.637 11.314 10.985 10.652 10.317 9.980 9.642 9.304 8.967 8.632 8.300 7.971 7.647 7.327 7.013 6.706 6.405 6.111 5.825 5.546 5.277 5.015 4.763 4.520 4.285 4.060 3.844 3.638 3.440 3.252 3.073 2.903 2.741 2.588 2.444 2.307 2.179 2.058 1.945 1.838
1.825 1.935 2.052 2.176 2.309 2.450 2.600 2.759 2.928 3.106 3.296 3.496 3.710 3.936 4.176 4.432 4.705 4.995 5.303 5.631 5.978 6.343 6.727 7.125 7.537 7.958 8.384 8.810 9.231 9.643 10.040 10.419 10.778 11.114 11.428 11.720 11.992 12.248 12.489 12.720 12.943 13.162 13.377 13.591 13.804 14.015 14.224 14.430 14.630 14.823 15.007 15.179 15.338 15.482 15.610 15.720 15.812 15.884 15.935 15.967 15.977 15.966 15.933 15.880 15.806 15.711 15.596 15.461 15.307 15.134 14.944 14.736 14.512 14.272 14.018 13.750 13.470 13.178 12.875 12.564 12.243 11.916 11.583 11.244 10.902 10.556 10.209 9.861 9.513 9.166 8.821 8.479 8.140 7.806 7.477 7.154 6.837 6.527 6.225 5.930 5.644 5.366 5.097 4.837 4.586 4.345 4.113 3.891 3.678 3.475 3.281 3.097 2.921 2.755 2.598 2.449 2.308 2.176 2.051 1.935 1.825
1.810 1.922 2.043 2.171 2.307 2.452 2.606 2.769 2.943 3.127 3.322 3.529 3.749 3.983 4.232 4.498 4.781 5.084 5.406 5.750 6.114 6.499 6.903 7.324 7.758 8.203 8.652 9.101 9.544 9.975 10.390 10.783 11.153 11.497 11.815 12.109 12.380 12.632 12.869 13.094 13.311 13.524 13.734 13.943 14.152 14.362 14.570 14.775 14.976 15.171 15.357 15.532 15.693 15.840 15.971 16.083 16.177 16.251 16.303 16.335 16.346 16.334 16.301 16.246 16.170 16.073 15.954 15.816 15.658 15.480 15.284 15.071 14.841 14.595 14.333 14.058 13.770 13.471 13.160 12.840 12.511 12.175 11.832 11.484 11.133 10.778 10.421 10.064 9.706 9.350 8.996 8.644 8.297 7.953 7.615 7.283 6.958 6.640 6.329 6.026 5.732 5.447 5.170 4.903 4.646 4.398 4.160 3.932 3.713 3.504 3.305 3.116 2.936 2.765 2.603 2.450 2.306 2.170 2.042 1.922 1.810
1.792 1.907 2.030 2.162 2.301 2.450 2.608 2.776 2.953 3.142 3.343 3.556 3.783 4.024 4.282 4.558 4.852 5.167 5.504 5.863 6.245 6.650 7.075 7.519 7.978 8.447 8.921 9.394 9.859 10.310 10.742 11.150 11.530 11.881 12.202 12.496 12.765 13.012 13.241 13.458 13.667 13.872 14.074 14.277 14.481 14.686 14.892 15.096 15.297 15.492 15.679 15.856 16.020 16.169 16.302 16.417 16.512 16.587 16.641 16.674 16.684 16.673 16.639 16.583 16.504 16.405 16.283 16.142 15.979 15.798 15.597 15.378 15.142 14.890 14.623 14.341 14.046 13.739 13.421 13.092 12.756 12.411 12.060 11.704 11.343 10.980 10.615 10.248 9.882 9.517 9.154 8.794 8.438 8.086 7.740 7.400 7.066 6.740 6.422 6.112 5.810 5.518 5.235 4.961 4.698 4.444 4.200 3.966 3.742 3.528 3.324 3.130 2.945 2.770 2.605 2.448 2.300 2.161 2.030 1.907 1.792
1.771 1.889 2.015 2.149 2.292 2.444 2.606 2.777 2.959 3.153 3.358 3.577 3.810 4.059 4.325 4.610 4.916 5.244 5.595 5.971 6.371 6.796 7.244 7.712 8.196 8.690 9.190 9.687 10.175 10.647 11.096 11.518 11.908 12.265 12.589 12.881 13.144 13.384 13.604 13.811 14.010 14.203 14.396 14.591 14.788 14.987 15.189 15.390 15.590 15.785 15.973 16.150 16.316 16.467 16.602 16.718 16.815 16.892 16.947 16.980 16.990 16.978 16.944 16.886 16.806 16.704 16.581 16.436 16.270 16.084 15.879 15.656 15.414 15.157 14.883 14.595 14.294 13.980 13.655 13.320 12.975 12.623 12.265 11.901 11.532 11.161 10.787 10.413 10.039 9.666 9.295 8.927 8.563 8.204 7.850 7.502 7.161 6.828 6.503 6.186 5.878 5.579 5.290 5.010 4.741 4.481 4.232 3.993 3.764 3.546 3.337 3.139 2.950 2.771 2.602 2.442 2.291 2.148 2.015 1.889 1.771
1.748 1.868 1.996 2.133 2.279 2.434 2.599 2.774 2.960 3.157 3.368 3.592 3.831 4.087 4.362 4.656 4.972 5.313 5.679 6.072 6.491 6.937 7.408 7.901 8.410 8.932 9.457 9.980 10.492 10.984 11.451 11.887 12.286 12.648 12.973 13.261 13.518 13.748 13.957 14.151 14.337 14.517 14.698 14.882 15.070 15.262 15.458 15.656 15.853 16.046 16.234 16.412 16.579 16.731 16.867 16.985 17.083 17.161 17.217 17.250 17.261 17.249 17.213 17.155 17.073 16.969 16.843 16.695 16.526 16.337 16.128 15.900 15.655 15.392 15.113 14.820 14.512 14.192 13.861 13.519 13.168 12.809 12.444 12.073 11.697 11.319 10.938 10.556 10.175 9.795 9.417 9.042 8.671 8.304 7.944 7.589 7.242 6.902 6.571 6.248 5.934 5.629 5.334 5.049 4.774 4.510 4.256 4.012 3.779 3.556 3.344 3.142 2.949 2.767 2.594 2.431 2.277 2.132 1.996 1.868 1.748
1.721 1.843 1.974 2.113 2.261 2.419 2.587 2.765 2.954 3.156 3.371 3.600 3.845 4.108 4.390 4.694 5.021 5.374 5.755 6.165 6.604 7.072 7.567 8.085 8.622 9.170 9.723 10.272 10.808 11.322 11.807 12.256 12.665 13.030 13.354 13.638 13.886 14.104 14.299 14.478 14.647 14.812 14.979 15.150 15.326 15.509 15.698 15.890 16.083 16.274 16.461 16.639 16.806 16.959 17.096 17.215 17.314 17.393 17.449 17.483 17.494 17.481 17.445 17.386 17.303 17.197 17.069 16.919 16.747 16.554 16.342 16.110 15.860 15.593 15.310 15.012 14.699 14.374 14.037 13.689 13.332 12.968 12.596 12.219 11.837 11.452 11.065 10.677 10.289 9.903 9.518 9.137 8.760 8.387 8.021 7.660 7.307 6.962 6.625 6.296 5.977 5.667 5.367 5.078 4.798 4.530 4.271 4.024 3.786 3.560 3.344 3.138 2.943 2.758 2.582 2.416 2.260 2.112 1.973 1.843 1.721
1.691 1.815 1.948 2.089 2.239 2.399 2.569 2.750 2.943 3.148 3.367 3.601 3.852 4.121 4.410 4.723 5.062 5.428 5.824 6.251 6.710 7.200 7.720 8.264 8.829 9.406 9.987 10.563 11.124 11.660 12.163 12.625 13.041 13.410 13.732 14.008 14.245 14.449 14.627 14.788 14.939 15.087 15.237 15.392 15.555 15.727 15.907 16.092 16.280 16.468 16.652 16.829 16.995 17.148 17.286 17.406 17.506 17.585 17.642 17.676 17.687 17.674 17.637 17.577 17.493 17.386 17.256 17.103 16.929 16.734 16.519 16.284 16.030 15.759 15.472 15.169 14.853 14.523 14.181 13.828 13.467 13.097 12.720 12.337 11.950 11.560 11.167 10.774 10.380 9.988 9.598 9.212 8.829 8.452 8.080 7.714 7.356 7.006 6.664 6.331 6.007 5.693 5.389 5.095 4.812 4.539 4.277 4.026 3.786 3.556 3.337 3.128 2.930 2.742 2.564 2.396 2.237 2.088 1.947 1.815 1.691
1.658 1.783 1.917 2.060 2.212 2.374 2.547 2.730 2.926 3.134 3.356 3.595 3.850 4.125 4.422 4.744 5.093 5.472 5.883 6.328 6.808 7.321 7.866 8.438 9.031 9.638 10.249 10.853 11.439 11.997 12.518 12.992 13.416 13.787 14.104 14.372 14.596 14.783 14.942 15.082 15.212 15.339 15.470 15.607 15.755 15.914 16.083 16.259 16.441 16.624 16.805 16.980 17.145 17.298 17.436 17.556 17.656 17.736 17.793 17.828 17.838 17.825 17.788 17.727 17.642 17.534 17.402 17.248 17.072 16.874 16.656 16.419 16.162 15.888 15.598 15.292 14.971 14.637 14.292 13.935 13.569 13.195 12.814 12.427 12.035 11.640 11.243 10.845 10.447 10.051 9.656 9.265 8.878 8.496 8.120 7.751 7.388 7.034 6.688 6.351 6.024 5.706 5.398 5.101 4.815 4.539 4.274 4.020 3.777 3.544 3.323 3.112 2.911 2.721 2.541 2.371 2.210 2.059 1.917 1.783 1.658
1.621 1.748 1.883 2.027 2.181 2.344 2.518 2.704 2.902 3.113 3.338 3.580 3.840 4.121 4.425 4.756 5.115 5.507 5.934 6.397 6.897 7.434 8.005 8.605 9.228 9.865 10.506 11.139 11.751 12.332 12.870 13.358 13.788 14.159 14.471 14.728 14.937 15.104 15.242 15.359 15.465 15.568 15.677 15.795 15.925 16.069 16.225 16.391 16.565 16.742 16.919 17.091 17.255 17.407 17.544 17.664 17.765 17.844 17.902 17.936 17.947 17.934 17.896 17.834 17.749 17.639 17.506 17.351 17.173 16.974 16.754 16.514 16.256 15.979 15.686 15.377 15.054 14.717 14.368 14.008 13.639 13.262 12.877 12.486 12.091 11.693 11.292 10.891 10.489 10.089 9.691 9.297 8.906 8.521 8.141 7.768 7.403 7.045 6.696 6.356 6.026 5.705 5.395 5.095 4.806 4.528 4.260 4.004 3.759 3.524 3.301 3.088 2.886 2.694 2.512 2.340 2.178 2.026 1.882 1.747 1.621
1.581 1.708 1.844 1.989 2.144 2.309 2.484 2.671 2.871 3.084 3.312 3.558 3.822 4.108 4.419 4.758 5.128 5.533 5.975 6.456 6.978 7.539 8.136 8.766 9.419 10.088 10.759 11.421 12.061 12.664 13.220 13.720 14.156 14.526 14.831 15.076 15.266 15.412 15.525 15.616 15.695 15.773 15.857 15.953 16.063 16.190 16.331 16.486 16.651 16.821 16.993 17.161 17.322 17.473 17.609 17.728 17.829 17.908 17.966 18.000 18.011 17.998 17.960 17.898 17.811 17.701 17.568 17.411 17.232 17.032 16.810 16.569 16.309 16.030 15.735 15.424 15.099 14.760 14.409 14.047 13.675 13.295 12.908 12.515 12.118 11.717 11.314 10.909 10.505 10.103 9.702 9.305 8.912 8.524 8.142 7.767 7.399 7.039 6.688 6.346 6.013 5.691 5.379 5.077 4.786 4.506 4.237 3.979 3.732 3.496 3.271 3.057 2.853 2.660 2.477 2.304 2.141 1.988 1.843 1.707 1.580
1.536 1.664 1.801 1.946 2.102 2.267 2.444 2.632 2.833 3.048 3.279 3.527 3.795 4.086 4.404 4.751 5.131 5.548 6.006 6.506 7.049 7.634 8.259 8.918 9.603 10.304 11.007 11.699 12.365 12.992 13.566 14.077 14.518 14.886 15.183 15.413 15.583 15.705 15.791 15.853 15.903 15.953 16.010 16.081 16.169 16.276 16.402 16.544 16.698 16.860 17.025 17.189 17.347 17.495 17.630 17.749 17.849 17.928 17.985 18.019 18.030 18.016 17.978 17.916 17.829 17.719 17.585 17.427 17.248 17.046 16.824 16.582 16.321 16.042 15.745 15.433 15.107 14.766 14.414 14.051 13.677 13.296 12.907 12.513 12.114 11.711 11.307 10.901 10.495 10.091 9.689 9.290 8.896 8.507 8.123 7.746 7.377 7.016 6.663 6.320 5.986 5.662 5.349 5.046 4.754 4.473 4.203 3.944 3.696 3.459 3.233 3.018 2.814 2.620 2.436 2.263 2.099 1.945 1.800 1.664 1.536
1.488 1.616 1.753 1.899 2.055 2.221 2.398 2.587 2.789 3.005 3.237 3.488 3.760 4.055 4.379 4.733 5.124 5.554 6.027 6.545 7.110 7.720 8.373 9.062 9.779 10.513 11.248 11.971 12.665 13.314 13.906 14.428 14.873 15.239 15.525 15.738 15.887 15.982 16.038 16.069 16.088 16.106 16.134 16.177 16.242 16.328 16.436 16.563 16.706 16.858 17.016 17.175 17.329 17.474 17.607 17.724 17.823 17.902 17.959 17.993 18.003 17.989 17.951 17.889 17.802 17.691 17.557 17.399 17.220 17.018 16.796 16.553 16.292 16.012 15.715 15.403 15.076 14.735 14.382 14.018 13.645 13.263 12.874 12.479 12.079 11.676 11.271 10.865 10.459 10.054 9.651 9.252 8.857 8.467 8.083 7.706 7.337 6.975 6.622 6.278 5.944 5.620 5.306 5.002 4.710 4.428 4.158 3.899 3.650 3.413 3.187 2.972 2.767 2.573 2.389 2.216 2.052 1.897 1.752 1.616 1.488
1.436 1.564 1.701 1.847 2.002 2.168 2.346 2.535 2.737 2.954 3.188 3.441 3.715 4.015 4.344 4.706 5.106 5.549 6.037 6.574 7.160 7.796 8.477 9.198 9.947 10.713 11.482 12.236 12.957 13.630 14.239 14.771 15.220 15.581 15.856 16.051 16.175 16.242 16.266 16.263 16.247 16.232 16.228 16.243 16.281 16.345 16.433 16.544 16.673 16.816 16.966 17.118 17.267 17.409 17.539 17.655 17.752 17.830 17.887 17.920 17.930 17.917 17.879 17.816 17.729 17.619 17.485 17.327 17.148 16.946 16.724 16.482 16.221 15.942 15.645 15.333 15.007 14.666 14.314 13.951 13.577 13.196 12.807 12.413 12.014 11.611 11.207 10.801 10.395 9.991 9.589 9.190 8.796 8.407 8.023 7.646 7.277 6.916 6.563 6.220 5.886 5.562 5.249 4.946 4.654 4.373 4.103 3.844 3.596 3.359 3.133 2.918 2.714 2.520 2.336 2.163 1.999 1.845 1.700 1.564 1.436
1.381 1.508 1.644 1.790 1.945 2.110 2.287 2.476 2.679 2.896 3.131 3.385 3.662 3.965 4.299 4.669 5.078 5.533 6.036 6.592 7.200 7.862 8.571 9.323 10.105 10.905 11.707 12.492 13.241 13.937 14.563 15.106 15.557 15.912 16.174 16.349 16.447 16.483 16.473 16.434 16.381 16.330 16.292 16.276 16.286 16.325 16.393 16.486 16.601 16.732 16.873 17.018 17.162 17.300 17.427 17.540 17.637 17.713 17.769 17.802 17.812 17.798 17.760 17.698 17.611 17.501 17.368 17.211 17.032 16.832 16.610 16.369 16.109 15.830 15.535 15.224 14.899 14.560 14.209 13.847 13.475 13.095 12.708 12.315 11.918 11.517 11.114 10.709 10.305 9.903 9.502 9.105 8.712 8.324 7.942 7.567 7.199 6.839 6.488 6.146 5.813 5.491 5.179 4.877 4.586 4.306 4.037 3.779 3.532 3.296 3.071 2.857 2.653 2.460 2.277 2.104 1.941 1.788 1.643 1.507 1.380
1.321 1.448 1.583 1.728 1.882 2.047 2.223 2.411 2.613 2.831 3.065 3.321 3.600 3.906 4.245 4.621 5.040 5.506 6.025 6.598 7.229 7.916 8.654 9.437 10.253 11.087 11.922 12.738 13.515 14.234 14.876 15.429 15.881 16.230 16.478 16.630 16.700 16.704 16.657 16.580 16.489 16.400 16.326 16.276 16.257 16.270 16.315 16.390 16.489 16.608 16.739 16.876 17.014 17.147 17.271 17.382 17.476 17.552 17.606 17.639 17.649 17.635 17.597 17.535 17.449 17.339 17.207 17.051 16.873 16.674 16.454 16.214 15.956 15.679 15.386 15.077 14.754 14.417 14.068 13.708 13.339 12.962 12.577 12.186 11.791 11.393 10.992 10.591 10.189 9.789 9.391 8.997 8.606 8.221 7.841 7.468 7.103 6.745 6.396 6.056 5.726 5.405 5.095 4.795 4.506 4.228 3.960 3.704 3.459 3.224 3.001 2.788 2.586 2.394 2.212 2.040 1.878 1.726 1.582 1.447 1.321
1.258 1.384 1.518 1.661 1.815 1.978 2.153 2.340 2.541 2.758 2.993 3.248 3.529 3.838 4.181 4.564 4.991 5.469 6.002 6.594 7.246 7.958 8.725 9.539 10.388 11.256 12.125 12.972 13.777 14.519 15.177 15.738 16.191 16.533 16.764 16.894 16.934 16.903 16.818 16.701 16.569 16.441 16.329 16.245 16.194 16.180 16.201 16.256 16.339 16.443 16.564 16.693 16.824 16.952 17.072 17.180 17.272 17.346 17.399 17.431 17.441 17.427 17.389 17.328 17.243 17.134 17.002 16.848 16.672 16.474 16.256 16.019 15.762 15.488 15.198 14.892 14.571 14.237 13.892 13.535 13.169 12.795 12.414 12.027 11.635 11.240 10.843 10.445 10.047 9.651 9.256 8.865 8.478 8.096 7.720 7.351 6.988 6.634 6.288 5.951 5.624 5.306 4.998 4.701 4.415 4.139 3.874 3.620 3.377 3.144 2.923 2.712 2.511 2.321 2.141 1.971 1.810 1.659 1.517 1.383 1.258
1.192 1.316 1.449 1.590 1.742 1.904 2.077 2.263 2.462 2.678 2.912 3.168 3.449 3.761 4.108 4.496 4.931 5.420 5.968 6.578 7.252 7.989 8.784 9.629 10.511 11.413 12.315 13.193 14.026 14.789 15.464 16.032 16.485 16.818 17.032 17.137 17.147 17.079 16.955 16.795 16.622 16.452 16.301 16.180 16.097 16.054 16.051 16.084 16.150 16.240 16.349 16.469 16.593 16.715 16.831 16.935 17.025 17.097 17.150 17.181 17.190 17.176 17.138 17.078 16.993 16.886 16.756 16.603 16.429 16.234 16.019 15.784 15.530 15.259 14.972 14.669 14.353 14.023 13.681 13.328 12.967 12.597 12.220 11.837 11.450 11.060 10.667 10.274 9.880 9.488 9.098 8.712 8.329 7.952 7.580 7.214 6.856 6.506 6.164 5.831 5.507 5.193 4.889 4.595 4.312 4.039 3.777 3.526 3.286 3.056 2.837 2.628 2.430 2.242 2.064 1.896 1.737 1.588 1.447 1.315 1.191
1.122 1.244 1.375 1.515 1.665 1.824 1.996 2.179 2.377 2.591 2.824 3.080 3.362 3.675 4.025 4.418 4.862 5.361 5.922 6.549 7.245 8.006 8.830 9.706 10.620 11.555 12.490 13.399 14.258 15.043 15.732 16.308 16.760 17.083 17.279 17.358 17.336 17.230 17.065 16.863 16.645 16.433 16.242 16.084 15.967 15.894 15.865 15.876 15.923 15.999 16.095 16.205 16.322 16.438 16.549 16.650 16.737 16.807 16.858 16.889 16.897 16.883 16.846 16.786 16.703 16.597 16.469 16.319 16.147 15.954 15.742 15.510 15.260 14.993 14.710 14.412 14.099 13.774 13.437 13.089 12.732 12.368 11.996 11.619 11.237 10.852 10.465 10.077 9.689 9.303 8.918 8.537 8.160 7.787 7.421 7.060 6.707 6.362 6.025 5.696 5.377 5.067 4.767 4.478 4.198 3.930 3.671 3.424 3.186 2.960 2.744 2.538 2.343 2.158 1.982 1.816 1.660 1.512 1.373 1.243 1.121
1.048 1.169 1.298 1.435 1.583 1.740 1.909 2.090 2.286 2.498 2.730 2.984 3.266 3.580 3.933 4.331 4.781 5.291 5.865 6.509 7.225 8.010 8.861 9.767 10.714 11.682 12.648 13.587 14.473 15.278 15.982 16.564 17.014 17.326 17.503 17.555 17.499 17.356 17.148 16.902 16.640 16.384 16.151 15.955 15.803 15.700 15.644 15.633 15.661 15.721 15.805 15.905 16.013 16.123 16.229 16.326 16.410 16.478 16.527 16.557 16.565 16.551 16.514 16.455 16.374 16.270 16.143 15.995 15.826 15.637 15.428 15.200 14.955 14.692 14.413 14.120 13.812 13.492 13.161 12.819 12.468 12.109 11.744 11.373 10.997 10.619 10.238 9.856 9.475 9.095 8.717 8.342 7.971 7.604 7.244 6.889 6.542 6.202 5.871 5.548 5.234 4.929 4.634 4.349 4.074 3.810 3.556 3.312 3.079 2.856 2.644 2.442 2.249 2.067 1.894 1.731 1.577 1.432 1.296 1.168 1.048
0.972 1.090 1.217 1.352 1.496 1.651 1.817 1.996 2.189 2.399 2.628 2.881 3.162 3.477 3.832 4.234 4.691 5.210 5.797 6.457 7.192 8.001 8.878 9.813 10.791 11.790 12.788 13.756 14.666 15.492 16.208 16.796 17.243 17.543 17.701 17.726 17.636 17.453 17.203 16.911 16.605 16.305 16.030 15.795 15.608 15.473 15.391 15.356 15.365 15.409 15.479 15.568 15.668 15.771 15.872 15.964 16.045 16.111 16.159 16.187 16.195 16.181 16.145 16.087 16.007 15.905 15.781 15.636 15.470 15.284 15.079 14.856 14.614 14.357 14.083 13.795 13.494 13.180 12.855 12.520 12.175 11.823 11.465 11.101 10.732 10.361 9.987 9.613 9.239 8.866 8.495 8.127 7.763 7.404 7.050 6.702 6.361 6.028 5.703 5.386 5.078 4.779 4.490 4.210 3.941 3.681 3.432 3.193 2.964 2.746 2.537 2.339 2.150 1.971 1.802 1.642 1.491 1.348 1.215 1.089 0.971
0.892 1.008 1.132 1.265 1.406 1.558 1.721 1.897 2.087 2.294 2.521 2.772 3.052 3.366 3.723 4.129 4.591 5.118 5.717 6.392 7.146 7.977 8.879 9.842 10.850 11.880 12.907 13.903 14.837 15.682 16.410 17.002 17.445 17.734 17.871 17.868 17.743 17.521 17.227 16.891 16.539 16.195 15.878 15.604 15.381 15.215 15.105 15.047 15.036 15.063 15.120 15.198 15.289 15.385 15.480 15.568 15.645 15.708 15.755 15.782 15.789 15.775 15.740 15.683 15.605 15.505 15.384 15.242 15.079 14.898 14.697 14.478 14.242 13.990 13.723 13.441 13.146 12.839 12.521 12.192 11.856 11.511 11.160 10.804 10.443 10.080 9.715 9.348 8.982 8.617 8.254 7.894 7.538 7.186 6.840 6.500 6.166 5.840 5.522 5.212 4.910 4.618 4.335 4.061 3.798 3.544 3.300 3.066 2.842 2.628 2.424 2.230 2.045 1.870 1.705 1.548 1.400 1.261 1.130 1.007 0.892
0.810 0.923 1.044 1.174 1.312 1.461 1.620 1.792 1.979 2.183 2.407 2.655 2.934 3.248 3.606 4.014 4.482 5.016 5.626 6.315 7.086 7.938 8.864 9.854 10.890 11.949 13.004 14.026 14.983 15.845 16.584 17.180 17.618 17.894 18.010 17.978 17.819 17.557 17.221 16.840 16.443 16.054 15.695 15.382 15.124 14.926 14.789 14.708 14.676 14.687 14.730 14.797 14.878 14.967 15.056 15.139 15.213 15.274 15.318 15.344 15.351 15.337 15.303 15.247 15.171 15.073 14.955 14.816 14.658 14.480 14.284 14.071 13.841 13.595 13.333 13.058 12.770 12.471 12.160 11.840 11.511 11.175 10.832 10.484 10.133 9.778 9.421 9.064 8.706 8.350 7.996 7.644 7.297 6.953 6.615 6.283 5.958 5.640 5.329 5.026 4.732 4.447 4.170 3.903 3.646 3.398 3.160 2.932 2.713 2.504 2.305 2.116 1.936 1.765 1.603 1.450 1.306 1.170 1.042 0.922 0.810
0.726 0.836 0.954 1.080 1.215 1.360 1.516 1.684 1.867 2.067 2.288 2.533 2.810 3.123 3.481 3.891 4.363 4.904 5.523 6.225 7.012 7.883 8.832 9.847 10.909 11.995 13.077 14.123 15.101 15.978 16.727 17.326 17.759 18.021 18.115 18.056 17.862 17.561 17.182 16.757 16.315 15.883 15.483 15.131 14.838 14.609 14.444 14.339 14.288 14.282 14.311 14.366 14.438 14.519 14.602 14.681 14.751 14.809 14.851 14.876 14.882 14.869 14.835 14.781 14.706 14.611 14.496 14.361 14.207 14.034 13.844 13.636 13.412 13.172 12.918 12.650 12.370 12.078 11.775 11.464 11.143 10.816 10.483 10.144 9.802 9.456 9.109 8.761 8.413 8.066 7.721 7.379 7.040 6.706 6.377 6.054 5.737 5.427 5.125 4.830 4.544 4.266 3.997 3.737 3.486 3.245 3.013 2.791 2.578 2.375 2.181 1.997 1.821 1.655 1.498 1.349 1.208 1.076 0.951 0.835 0.725
0.639 0.746 0.860 0.983 1.114 1.255 1.407 1.571 1.750 1.946 2.163 2.406 2.680 2.991 3.348 3.760 4.235 4.782 5.409 6.122 6.924 7.813 8.783 9.820 10.906 12.018 13.124 14.192 15.189 16.080 16.838 17.437 17.864 18.112 18.185 18.098 17.870 17.531 17.110 16.642 16.156 15.682 15.241 14.851 14.524 14.264 14.072 13.944 13.873 13.850 13.866 13.909 13.972 14.045 14.122 14.196 14.262 14.317 14.357 14.381 14.387 14.373 14.341 14.288 14.215 14.123 14.011 13.880 13.730 13.563 13.377 13.176 12.958 12.725 12.478 12.218 11.946 11.663 11.369 11.066 10.755 10.437 10.114 9.785 9.452 9.117 8.780 8.442 8.104 7.767 7.432 7.100 6.771 6.447 6.127 5.813 5.506 5.205 4.911 4.625 4.346 4.077 3.815 3.563 3.320 3.085 2.860 2.644 2.438 2.240 2.052 1.873 1.703 1.541 1.388 1.244 1.107 0.979 0.858 0.745 0.638
0.550 0.654 0.765 0.884 1.011 1.148 1.296 1.455 1.630 1.822 2.035 2.273 2.544 2.853 3.209 3.621 4.098 4.650 5.284 6.008 6.822 7.727 8.715 9.773 10.881 12.015 13.143 14.231 15.245 16.148 16.912 17.512 17.931 18.165 18.218 18.102 17.842 17.465 17.004 16.494 15.966 15.450 14.970 14.544 14.183 13.894 13.676 13.525 13.434 13.395 13.396 13.429 13.482 13.548 13.618 13.687 13.749 13.801 13.839 13.862 13.867 13.854 13.822 13.771 13.701 13.611 13.503 13.376 13.231 13.068 12.889 12.693 12.482 12.257 12.018 11.766 11.502 11.228 10.943 10.650 10.349 10.041 9.727 9.409 9.087 8.762 8.435 8.108 7.781 7.454 7.130 6.808 6.490 6.175 5.866 5.562 5.264 4.972 4.688 4.411 4.141 3.880 3.627 3.382 3.147 2.920 2.702 2.493 2.292 2.101 1.919 1.745 1.581 1.424 1.276 1.136 1.004 0.879 0.762 0.652 0.549
0.460 0.560 0.667 0.782 0.905 1.038 1.181 1.336 1.506 1.693 1.902 2.136 2.403 2.710 3.064 3.475 3.954 4.509 5.149 5.880 6.706 7.624 8.628 9.704 10.832 11.985 13.132 14.238 15.266 16.180 16.948 17.547 17.959 18.178 18.210 18.068 17.775 17.362 16.863 16.313 15.745 15.189 14.672 14.211 13.818 13.500 13.256 13.083 12.974 12.918 12.906 12.927 12.971 13.029 13.093 13.157 13.215 13.264 13.300 13.321 13.326 13.313 13.282 13.233 13.165 13.078 12.973 12.851 12.711 12.554 12.380 12.192 11.988 11.770 11.539 11.296 11.041 10.776 10.501 10.218 9.927 9.629 9.326 9.018 8.707 8.393 8.078 7.761 7.445 7.130 6.817 6.506 6.198 5.894 5.595 5.302 5.014 4.732 4.457 4.189 3.929 3.676 3.432 3.196 2.968 2.749 2.538 2.336 2.143 1.958 1.782 1.614 1.455 1.304 1.161 1.025 0.898 0.778 0.664 0.558 0.459
0.367 0.464 0.568 0.678 0.797 0.926 1.064 1.215 1.380 1.562 1.765 1.995 2.258 2.561 2.913 3.323 3.802 4.359 5.003 5.741 6.575 7.505 8.522 9.613 10.757 11.928 13.091 14.211 15.251 16.173 16.944 17.540 17.944 18.149 18.160 17.992 17.669 17.222 16.686 16.098 15.492 14.899 14.346 13.852 13.429 13.083 12.816 12.622 12.494 12.423 12.398 12.408 12.442 12.492 12.550 12.609 12.663 12.709 12.743 12.763 12.767 12.755 12.725 12.677 12.611 12.528 12.427 12.309 12.174 12.022 11.855 11.673 11.477 11.267 11.045 10.810 10.565 10.309 10.044 9.771 9.491 9.204 8.912 8.616 8.316 8.013 7.709 7.404 7.099 6.796 6.494 6.194 5.897 5.605 5.317 5.034 4.756 4.485 4.220 3.962 3.711 3.468 3.232 3.004 2.785 2.574 2.371 2.176 1.990 1.812 1.642 1.480 1.327 1.181 1.043 0.913 0.790 0.674 0.565 0.463 0.367
0.274 0.367 0.467 0.573 0.688 0.812 0.945 1.091 1.250 1.428 1.626 1.851 2.109 2.408 2.757 3.165 3.642 4.200 4.847 5.589 6.430 7.368 8.396 9.500 10.657 11.841 13.018 14.149 15.198 16.125 16.898 17.490 17.885 18.075 18.066 17.874 17.522 17.043 16.473 15.850 15.208 14.581 13.995 13.470 13.018 12.647 12.357 12.143 11.998 11.912 11.874 11.873 11.899 11.941 11.993 12.046 12.097 12.139 12.171 12.190 12.194 12.181 12.152 12.106 12.043 11.963 11.866 11.752 11.623 11.477 11.317 11.142 10.953 10.751 10.537 10.312 10.076 9.830 9.576 9.313 9.044 8.768 8.487 8.202 7.914 7.623 7.331 7.038 6.745 6.453 6.163 5.875 5.590 5.309 5.032 4.759 4.493 4.232 3.977 3.729 3.488 3.254 3.028 2.809 2.598 2.395 2.200 2.012 1.833 1.662 1.499 1.344 1.196 1.056 0.924 0.798 0.680 0.569 0.464 0.366 0.273
0.180 0.269 0.365 0.467 0.577 0.696 0.825 0.965 1.119 1.291 1.484 1.704 1.957 2.251 2.596 3.001 3.476 4.033 4.681 5.426 6.271 7.215 8.251 9.363 10.531 11.725 12.911 14.051 15.105 16.036 16.808 17.395 17.780 17.956 17.928 17.712 17.334 16.826 16.224 15.568 14.894 14.235 13.619 13.065 12.588 12.193 11.881 11.649 11.487 11.387 11.337 11.326 11.343 11.378 11.424 11.472 11.519 11.558 11.588 11.605 11.608 11.597 11.569 11.525 11.464 11.387 11.294 11.185 11.061 10.921 10.767 10.600 10.419 10.225 10.020 9.804 9.578 9.342 9.098 8.846 8.588 8.324 8.055 7.781 7.505 7.226 6.946 6.665 6.384 6.104 5.826 5.550 5.276 5.007 4.741 4.480 4.225 3.974 3.730 3.492 3.261 3.037 2.820 2.610 2.408 2.213 2.026 1.847 1.675 1.511 1.354 1.205 1.064 0.930 0.803 0.682 0.569 0.462 0.362 0.267 0.179
0.085 0.170 0.262 0.360 0.465 0.579 0.703 0.838 0.987 1.153 1.340 1.555 1.802 2.091 2.431 2.832 3.304 3.859 4.506 5.251 6.098 7.046 8.086 9.204 10.378 11.578 12.770 13.915 14.972 15.903 16.673 17.253 17.628 17.790 17.744 17.506 17.104 16.568 15.939 15.254 14.550 13.863 13.219 12.640 12.139 11.722 11.391 11.142 10.965 10.852 10.791 10.770 10.778 10.806 10.846 10.890 10.932 10.969 10.996 11.012 11.015 11.003 10.977 10.934 10.876 10.803 10.714 10.610 10.491 10.357 10.210 10.050 9.877 9.692 9.495 9.289 9.072 8.847 8.614 8.373 8.126 7.873 7.616 7.355 7.090 6.824 6.556 6.287 6.018 5.751 5.484 5.220 4.959 4.701 4.447 4.198 3.953 3.714 3.480 3.253 3.032 2.817 2.610 2.409 2.215 2.029 1.850 1.679 1.515 1.358 1.208 1.066 0.930 0.802 0.680 0.566 0.457 0.355 0.259 0.169 0.084
-0.010 0.071 0.158 0.252 0.353 0.462 0.580 0.710 0.853 1.014 1.195 1.403 1.645 1.928 2.263 2.658 3.126 3.678 4.321 5.065 5.911 6.860 7.901 9.021 10.197 11.400 12.595 13.741 14.798 15.727 16.491 17.064 17.428 17.576 17.513 17.256 16.831 16.272 15.617 14.907 14.178 13.466 12.798 12.196 11.674 11.238 10.890 10.625 10.434 10.309 10.237 10.207 10.207 10.229 10.262 10.301 10.340 10.374 10.399 10.414 10.416 10.405 10.379 10.339 10.284 10.213 10.128 10.029 9.916 9.788 9.648 9.495 9.330 9.153 8.966 8.769 8.563 8.348 8.125 7.896 7.660 7.419 7.173 6.924 6.672 6.418 6.162 5.906 5.649 5.394 5.140 4.888 4.639 4.393 4.151 3.913 3.679 3.451 3.228 3.011 2.800 2.596 2.398 2.206 2.022 1.844 1.674 1.510 1.353 1.204 1.061 0.925 0.796 0.674 0.558 0.448 0.345 0.247 0.155 0.069 -0.011
-0.106 -0.028 0.055 0.144 0.240 0.344 0.457 0.582 0.719 0.874 1.049 1.251 1.486 1.763 2.091 2.481 2.944 3.490 4.129 4.868 5.712 6.657 7.697 8.815 9.991 11.192 12.385 13.529 14.582 15.506 16.264 16.828 17.180 17.315 17.236 16.961 16.517 15.937 15.261 14.528 13.778 13.044 12.356 11.735 11.194 10.742 10.379 10.100 9.897 9.761 9.679 9.640 9.633 9.648 9.676 9.711 9.746 9.776 9.800 9.813 9.815 9.804 9.780 9.741 9.689 9.622 9.541 9.446 9.338 9.217 9.084 8.938 8.781 8.613 8.435 8.247 8.051 7.847 7.635 7.416 7.192 6.963 6.729 6.492 6.252 6.010 5.767 5.523 5.279 5.036 4.794 4.555 4.318 4.084 3.853 3.627 3.405 3.188 2.976 2.769 2.568 2.374 2.185 2.003 1.828 1.659 1.496 1.341 1.192 1.049 0.913 0.784 0.661 0.545 0.434 0.330 0.232 0.139 0.052 -0.030 -0.107
-0.201 -0.128 -0.049 0.036 0.127 0.227 0.334 0.453 0.585 0.733 0.902 1.098 1.326 1.597 1.918 2.301 2.757 3.296 3.929 4.662 5.500 6.439 7.474 8.587 9.757 10.954 12.141 13.278 14.325 15.241 15.990 16.544 16.884 17.006 16.912 16.622 16.161 15.564 14.870 14.120 13.351 12.600 11.895 11.258 10.703 10.236 9.860 9.569 9.356 9.209 9.119 9.072 9.058 9.067 9.090 9.120 9.151 9.179 9.201 9.213 9.215 9.204 9.181 9.144 9.094 9.031 8.954 8.864 8.762 8.647 8.520 8.382 8.233 8.073 7.904 7.726 7.540 7.346 7.145 6.937 6.725 6.507 6.285 6.060 5.832 5.603 5.372 5.141 4.909 4.679 4.449 4.222 3.997 3.775 3.556 3.341 3.130 2.924 2.723 2.527 2.337 2.152 1.973 1.800 1.634 1.473 1.319 1.171 1.030 0.895 0.766 0.643 0.527 0.416 0.311 0.212 0.119 0.031 -0.052 -0.129 -0.202
-0.297 -0.227 -0.152 -0.072 0.015 0.109 0.212 0.325 0.451 0.593 0.756 0.944 1.166 1.429 1.743 2.118 2.566 3.097 3.721 4.446 5.275 6.207 7.232 8.337 9.498 10.685 11.863 12.991 14.027 14.932 15.670 16.212 16.541 16.650 16.544 16.240 15.765 15.154 14.446 13.682 12.900 12.136 11.418 10.768 10.201 9.723 9.336 9.035 8.813 8.658 8.559 8.505 8.485 8.488 8.506 8.532 8.560 8.586 8.605 8.616 8.617 8.607 8.585 8.550 8.503 8.443 8.370 8.285 8.188 8.079 7.959 7.828 7.687 7.536 7.376 7.208 7.031 6.848 6.657 6.461 6.260 6.054 5.844 5.631 5.415 5.198 4.979 4.760 4.541 4.323 4.106 3.890 3.677 3.467 3.260 3.057 2.857 2.662 2.472 2.286 2.106 1.931 1.762 1.598 1.440 1.289 1.143 1.003 0.869 0.741 0.619 0.503 0.392 0.288 0.189 0.095 0.007 -0.077 -0.155 -0.229 -0.298
-0.391 -0.326 -0.255 -0.179 -0.097 -0.007 0.090 0.197 0.318 0.453 0.609 0.791 1.006 1.261 1.566 1.933 2.372 2.893 3.508 4.222 5.040 5.960 6.973 8.065 9.213 10.387 11.552 12.666 13.689 14.581 15.306 15.835 16.152 16.248 16.131 15.816 15.330 14.709 13.991 13.217 12.426 11.652 10.925 10.267 9.691 9.205 8.809 8.500 8.270 8.108 8.003 7.942 7.916 7.914 7.928 7.950 7.974 7.997 8.015 8.025 8.026 8.016 7.995 7.962 7.917 7.860 7.792 7.711 7.620 7.517 7.404 7.280 7.147 7.005 6.854 6.694 6.528 6.354 6.175 5.989 5.799 5.605 5.406 5.205 5.002 4.796 4.590 4.383 4.176 3.970 3.765 3.562 3.361 3.162 2.967 2.775 2.586 2.402 2.222 2.047 1.877 1.712 1.552 1.398 1.249 1.105 0.968 0.835 0.709 0.588 0.473 0.363 0.259 0.160 0.067 -0.022 -0.105 -0.184 -0.258 -0.327 -0.392
-0.485 -0.423 -0.357 -0.285 -0.207 -0.123 -0.031 0.071 0.185 0.315 0.464 0.639 0.846 1.093 1.389 1.747 2.175 2.686 3.288 3.990 4.794 5.699 6.697 7.773 8.905 10.062 11.209 12.307 13.313 14.189 14.898 15.414 15.718 15.803 15.675 15.351 14.859 14.231 13.507 12.727 11.931 11.152 10.420 9.756 9.174 8.683 8.281 7.967 7.730 7.562 7.451 7.386 7.354 7.347 7.357 7.375 7.397 7.417 7.433 7.442 7.442 7.433 7.413 7.382 7.340 7.286 7.221 7.146 7.060 6.963 6.856 6.740 6.614 6.480 6.338 6.188 6.031 5.868 5.698 5.524 5.345 5.162 4.975 4.785 4.594 4.400 4.206 4.011 3.817 3.622 3.429 3.238 3.048 2.861 2.677 2.496 2.319 2.146 1.976 1.811 1.651 1.495 1.345 1.199 1.059 0.924 0.794 0.670 0.551 0.437 0.329 0.225 0.127 0.034 -0.054 -0.137 -0.216 -0.290 -0.360 -0.425 -0.486
-0.579 -0.520 -0.458 -0.390 -0.317 -0.238 -0.151 -0.054 0.054 0.178 0.320 0.488 0.687 0.925 1.213 1.559 1.977 2.475 3.064 3.751 4.539 5.427 6.407 7.463 8.574 9.710 10.836 11.913 12.900 13.757 14.450 14.951 15.242 15.316 15.180 14.850 14.352 13.721 12.995 12.214 11.416 10.637 9.903 9.238 8.654 8.159 7.755 7.436 7.195 7.023 6.907 6.837 6.801 6.790 6.795 6.810 6.829 6.847 6.861 6.869 6.869 6.860 6.841 6.812 6.772 6.722 6.661 6.590 6.509 6.418 6.318 6.209 6.091 5.965 5.831 5.690 5.543 5.390 5.231 5.067 4.898 4.726 4.551 4.373 4.193 4.011 3.829 3.646 3.463 3.280 3.099 2.919 2.741 2.565 2.392 2.222 2.056 1.893 1.734 1.579 1.428 1.282 1.141 1.004 0.872 0.745 0.623 0.507 0.395 0.288 0.186 0.089 -0.003 -0.091 -0.173 -0.252 -0.326 -0.395 -0.461 -0.522 -0.580
-0.671 -0.616 -0.557 -0.494 -0.426 -0.351 -0.269 -0.178 -0.075 0.042 0.178 0.338 0.529 0.758 1.036 1.372 1.777 2.262 2.836 3.506 4.276 5.144 6.102 7.135 8.222 9.334 10.436 11.489 12.453 13.289 13.963 14.448 14.726 14.790 14.647 14.313 13.813 13.183 12.458 11.680 10.886 10.109 9.378 8.714 8.132 7.637 7.231 6.911 6.667 6.491 6.372 6.298 6.258 6.243 6.245 6.257 6.273 6.289 6.301 6.308 6.308 6.299 6.282 6.254 6.217 6.170 6.113 6.046 5.970 5.885 5.791 5.689 5.579 5.460 5.335 5.203 5.065 4.921 4.772 4.619 4.461 4.300 4.135 3.969 3.800 3.630 3.459 3.287 3.116 2.945 2.775 2.606 2.440 2.275 2.113 1.954 1.798 1.645 1.496 1.351 1.210 1.073 0.940 0.812 0.689 0.570 0.455 0.346 0.241 0.141 0.046 -0.045 -0.132 -0.214 -0.291 -0.365 -0.434 -0.499 -0.560 -0.618 -0.672
-0.762 -0.711 -0.656 -0.597 -0.532 -0.462 -0.385 -0.299 -0.203 -0.092 0.037 0.190 0.373 0.593 0.861 1.185 1.577 2.047 2.605 3.256 4.005 4.850 5.784 6.791 7.851 8.935 10.009 11.035 11.974 12.787 13.441 13.908 14.173 14.228 14.080 13.744 13.245 12.618 11.900 11.128 10.341 9.571 8.846 8.188 7.609 7.117 6.713 6.392 6.148 5.970 5.848 5.770 5.727 5.709 5.708 5.717 5.730 5.744 5.755 5.762 5.761 5.753 5.736 5.710 5.676 5.632 5.578 5.516 5.445 5.366 5.278 5.182 5.079 4.969 4.851 4.728 4.599 4.465 4.325 4.182 4.034 3.884 3.730 3.574 3.417 3.258 3.098 2.937 2.777 2.617 2.459 2.301 2.145 1.991 1.840 1.691 1.545 1.402 1.263 1.127 0.995 0.868 0.744 0.624 0.509 0.397 0.291 0.188 0.090 -0.003 -0.092 -0.177 -0.258 -0.335 -0.407 -0.476 -0.540 -0.601 -0.659 -0.712 -0.763
-0.852 -0.804 -0.753 -0.697 -0.637 -0.572 -0.500 -0.419 -0.328 -0.223 -0.101 0.044 0.219 0.430 0.687 0.999 1.377 1.832 2.371 3.002 3.729 4.549 5.455 6.434 7.463 8.517 9.560 10.556 11.466 12.254 12.886 13.336 13.587 13.634 13.482 13.146 12.652 12.032 11.322 10.561 9.784 9.025 8.310 7.660 7.088 6.601 6.201 5.882 5.638 5.460 5.336 5.256 5.211 5.190 5.186 5.192 5.203 5.215 5.225 5.230 5.230 5.222 5.206 5.182 5.150 5.109 5.059 5.001 4.935 4.861 4.779 4.690 4.593 4.490 4.381 4.266 4.146 4.021 3.891 3.757 3.620 3.479 3.336 3.191 3.044 2.895 2.746 2.597 2.448 2.299 2.151 2.004 1.858 1.715 1.574 1.435 1.299 1.166 1.036 0.910 0.787 0.667 0.552 0.440 0.333 0.229 0.130 0.034 -0.057 -0.144 -0.228 -0.307 -0.382 -0.453 -0.521 -0.585 -0.645 -0.702 -0.755 -0.806 -0.853
-0.940 -0.896 -0.848 -0.796 -0.740 -0.679 -0.612 -0.536 -0.451 -0.352 -0.236 -0.099 0.067 0.269 0.515 0.814 1.178 1.616 2.136 2.745 3.447 4.241 5.117 6.064 7.061 8.080 9.090 10.053 10.933 11.694 12.302 12.734 12.972 13.011 12.856 12.523 12.035 11.425 10.728 9.981 9.219 8.474 7.772 7.134 6.571 6.092 5.697 5.382 5.140 4.962 4.838 4.757 4.709 4.686 4.679 4.683 4.692 4.703 4.711 4.716 4.715 4.708 4.693 4.671 4.640 4.602 4.556 4.502 4.441 4.372 4.296 4.213 4.123 4.027 3.926 3.819 3.707 3.591 3.470 3.345 3.218 3.087 2.954 2.819 2.682 2.544 2.406 2.267 2.128 1.989 1.852 1.715 1.580 1.447 1.315 1.186 1.060 0.936 0.815 0.698 0.583 0.472 0.365 0.261 0.161 0.065 -0.028 -0.116 -0.201 -0.282 -0.360 -0.433 -0.503 -0.570 -0.633 -0.692 -0.748 -0.801 -0.851 -0.897 -0.941
-1.027 -0.986 -0.942 -0.894 -0.842 -0.785 -0.722 -0.651 -0.571 -0.478 -0.369 -0.239 -0.081 0.110 0.345 0.632 0.980 1.400 1.900 2.487 3.163 3.927 4.772 5.685 6.646 7.629 8.602 9.530 10.378 11.110 11.694 12.107 12.332 12.364 12.208 11.879 11.400 10.803 10.122 9.392 8.647 7.920 7.234 6.610 6.060 5.591 5.203 4.893 4.655 4.479 4.355 4.273 4.224 4.199 4.190 4.192 4.199 4.208 4.216 4.220 4.219 4.212 4.198 4.177 4.149 4.114 4.071 4.021 3.964 3.900 3.829 3.752 3.669 3.580 3.486 3.387 3.283 3.175 3.063 2.948 2.829 2.708 2.585 2.459 2.333 2.205 2.076 1.947 1.818 1.690 1.562 1.436 1.310 1.187 1.065 0.945 0.828 0.713 0.601 0.492 0.386 0.283 0.183 0.087 -0.006 -0.095 -0.181 -0.263 -0.342 -0.417 -0.489 -0.557 -0.622 -0.684 -0.742 -0.797 -0.849 -0.898 -0.944 -0.987 -1.028
-1.112 -1.074 -1.033 -0.989 -0.941 -0.888 -0.829 -0.763 -0.688 -0.601 -0.499 -0.376 -0.227 -0.045 0.178 0.451 0.784 1.186 1.665 2.227 2.876 3.609 4.421 5.298 6.221 7.165 8.100 8.991 9.805 10.506 11.065 11.459 11.671 11.697 11.541 11.218 10.751 10.169 9.506 8.796 8.072 7.365 6.699 6.092 5.556 5.099 4.721 4.418 4.184 4.010 3.888 3.806 3.756 3.729 3.719 3.719 3.725 3.732 3.739 3.742 3.741 3.734 3.721 3.702 3.676 3.643 3.604 3.557 3.505 3.445 3.380 3.309 3.232 3.150 3.063 2.971 2.875 2.775 2.672 2.565 2.455 2.343 2.229 2.113 1.996 1.877 1.758 1.639 1.520 1.401 1.283 1.166 1.050 0.935 0.823 0.712 0.604 0.497 0.394 0.293 0.195 0.100 0.007 -0.082 -0.168 -0.250 -0.330 -0.406 -0.479 -0.548 -0.615 -0.678 -0.738 -0.795 -0.849 -0.900 -0.948 -0.993 -1.036 -1.076 -1.113
-1.196 -1.161 -1.123 -1.082 -1.037 -0.988 -0.934 -0.873 -0.803 -0.722 -0.626 -0.510 -0.370 -0.197 0.014 0.274 0.591 0.974 1.431 1.968 2.588 3.289 4.066 4.905 5.788 6.692 7.586 8.439 9.217 9.887 10.420 10.793 10.993 11.013 10.859 10.543 10.090 9.526 8.884 8.197 7.497 6.813 6.168 5.580 5.061 4.618 4.251 3.956 3.728 3.558 3.437 3.356 3.306 3.278 3.267 3.265 3.269 3.276 3.281 3.284 3.283 3.276 3.265 3.247 3.223 3.192 3.156 3.113 3.064 3.010 2.949 2.884 2.813 2.737 2.657 2.572 2.484 2.391 2.296 2.197 2.096 1.992 1.887 1.780 1.672 1.563 1.453 1.343 1.233 1.123 1.014 0.906 0.799 0.694 0.590 0.487 0.387 0.289 0.194 0.101 0.010 -0.078 -0.163 -0.245 -0.324 -0.401 -0.474 -0.544 -0.611 -0.675 -0.737 -0.795 -0.850 -0.903 -0.953 -1.000 -1.044 -1.086 -1.125 -1.162 -1.197
-1.278 -1.246 -1.211 -1.173 -1.132 -1.087 -1.036 -0.980 -0.915 -0.839 -0.749 -0.641 -0.508 -0.346 -0.146 0.100 0.401 0.764 1.199 1.710 2.300 2.968 3.708 4.508 5.351 6.212 7.065 7.878 8.619 9.256 9.763 10.116 10.303 10.318 10.166 9.860 9.422 8.878 8.259 7.598 6.924 6.264 5.643 5.077 4.577 4.149 3.794 3.509 3.288 3.123 3.005 2.925 2.875 2.846 2.834 2.831 2.834 2.839 2.843 2.846 2.844 2.839 2.828 2.811 2.789 2.761 2.727 2.688 2.643 2.593 2.537 2.477 2.412 2.342 2.268 2.190 2.109 2.024 1.936 1.845 1.752 1.657 1.560 1.461 1.362 1.261 1.160 1.059 0.958 0.857 0.756 0.657 0.558 0.461 0.365 0.271 0.179 0.089 0.001 -0.085 -0.168 -0.249 -0.327 -0.403 -0.476 -0.546 -0.613 -0.678 -0.740 -0.799 -0.855 -0.909 -0.960 -1.009 -1.054 -1.098 -1.138 -1.177 -1.213 -1.247 -1.279
-1.359 -1.329 -1.297 -1.262 -1.224 -1.182 -1.136 -1.083 -1.023 -0.953 -0.869 -0.768 -0.644 -0.491 -0.303 -0.070 0.214 0.558 0.970 1.454 2.014 2.649 3.351 4.111 4.911 5.729 6.539 7.311 8.014 8.618 9.097 9.431 9.606 9.617 9.468 9.173 8.751 8.229 7.636 7.001 6.355 5.723 5.127 4.584 4.105 3.694 3.353 3.078 2.865 2.705 2.590 2.512 2.462 2.434 2.420 2.416 2.418 2.422 2.426 2.428 2.426 2.421 2.411 2.396 2.375 2.350 2.319 2.283 2.242 2.195 2.144 2.089 2.029 1.965 1.897 1.826 1.751 1.673 1.592 1.509 1.423 1.336 1.247 1.156 1.065 0.973 0.880 0.787 0.694 0.601 0.509 0.418 0.327 0.238 0.150 0.064 -0.021 -0.103 -0.184 -0.263 -0.340 -0.414 -0.486 -0.555 -0.622 -0.686 -0.748 -0.808 -0.864 -0.919 -0.971 -1.020 -1.067 -1.111 -1.153 -1.193 -1.230 -1.266 -1.299 -1.330 -1.359
-1.437 -1.410 -1.381 -1.349 -1.314 -1.276 -1.233 -1.184 -1.129 -1.064 -0.986 -0.891 -0.775 -0.632 -0.455 -0.237 0.031 0.356 0.744 1.202 1.731 2.331 2.995 3.714 4.471 5.245 6.012 6.742 7.406 7.977 8.429 8.743 8.906 8.913 8.768 8.485 8.081 7.582 7.016 6.410 5.793 5.191 4.622 4.104 3.645 3.253 2.926 2.663 2.459 2.305 2.194 2.118 2.069 2.041 2.027 2.022 2.023 2.026 2.029 2.030 2.029 2.024 2.015 2.001 1.982 1.959 1.930 1.897 1.859 1.817 1.771 1.720 1.665 1.606 1.544 1.479 1.410 1.339 1.265 1.188 1.110 1.030 0.948 0.866 0.782 0.697 0.613 0.527 0.442 0.357 0.273 0.189 0.107 0.025 -0.056 -0.135 -0.212 -0.288 -0.362 -0.434 -0.504 -0.572 -0.638 -0.701 -0.763 -0.822 -0.878 -0.933 -0.985 -1.035 -1.082 -1.127 -1.170 -1.211 -1.249 -1.286 -1.320 -1.352 -1.383 -1.411 -1.438
-1.515 -1.490 -1.463 -1.433 -1.401 -1.366 -1.327 -1.283 -1.231 -1.171 -1.099 -1.011 -0.903 -0.769 -0.604 -0.399 -0.148 0.157 0.523 0.954 1.452 2.017 2.643 3.320 4.034 4.764 5.486 6.173 6.799 7.336 7.761 8.055 8.207 8.211 8.071 7.801 7.416 6.941 6.403 5.828 5.242 4.669 4.129 3.636 3.200 2.827 2.516 2.265 2.070 1.923 1.816 1.743 1.695 1.667 1.653 1.647 1.647 1.650 1.652 1.653 1.652 1.647 1.639 1.626 1.609 1.588 1.562 1.531 1.497 1.458 1.416 1.369 1.319 1.266 1.209 1.149 1.086 1.021 0.954 0.884 0.812 0.739 0.665 0.589 0.513 0.436 0.358 0.280 0.202 0.125 0.048 -0.029 -0.104 -0.179 -0.252 -0.325 -0.395 -0.465 -0.532 -0.598 -0.662 -0.724 -0.784 -0.842 -0.898 -0.952 -1.004 -1.054 -1.101 -1.147 -1.190 -1.231 -1.270 -1.307 -1.343 -1.376 -1.407 -1.437 -1.465 -1.491 -1.515
-1.590 -1.567 -1.543 -1.516 -1.487 -1.455 -1.419 -1.378 -1.331 -1.275 -1.208 -1.127 -1.027 -0.902 -0.748 -0.556 -0.321 -0.036 0.307 0.710 1.178 1.708 2.296 2.932 3.601 4.287 4.964 5.610 6.197 6.701 7.098 7.373 7.513 7.514 7.381 7.123 6.759 6.310 5.800 5.256 4.702 4.160 3.649 3.183 2.771 2.417 2.122 1.885 1.699 1.559 1.457 1.386 1.341 1.313 1.298 1.293 1.292 1.294 1.296 1.297 1.295 1.291 1.283 1.271 1.256 1.236 1.213 1.185 1.154 1.119 1.080 1.038 0.992 0.943 0.891 0.837 0.780 0.720 0.659 0.595 0.530 0.464 0.396 0.327 0.257 0.187 0.116 0.045 -0.026 -0.096 -0.166 -0.236 -0.305 -0.373 -0.440 -0.506 -0.570 -0.633 -0.695 -0.755 -0.813 -0.870 -0.924 -0.977 -1.028 -1.078 -1.125 -1.170 -1.213 -1.255 -1.294 -1.332 -1.367 -1.401 -1.433 -1.464 -1.492 -1.519 -1.544 -1.568 -1.590
-1.664 -1.643 -1.621 -1.596 -1.570 -1.540 -1.508 -1.470 -1.427 -1.376 -1.314 -1.239 -1.146 -1.031 -0.887 -0.709 -0.490 -0.224 0.096 0.473 0.910 1.405 1.955 2.549 3.176 3.817 4.450 5.054 5.603 6.073 6.444 6.700 6.829 6.828 6.701 6.457 6.113 5.690 5.210 4.697 4.176 3.666 3.185 2.746 2.357 2.024 1.746 1.521 1.346 1.213 1.116 1.049 1.005 0.978 0.964 0.958 0.956 0.958 0.959 0.960 0.958 0.954 0.947 0.937 0.923 0.905 0.883 0.858 0.830 0.798 0.763 0.724 0.683 0.638 0.591 0.542 0.490 0.436 0.380 0.322 0.263 0.203 0.141 0.078 0.015 -0.049 -0.113 -0.178 -0.242 -0.306 -0.370 -0.433 -0.496 -0.558 -0.619 -0.678 -0.737 -0.794 -0.850 -0.905 -0.958 -1.009 -1.059 -1.107 -1.153 -1.198 -1.241 -1.282 -1.321 -1.359 -1.395 -1.429 -1.461 -1.492 -1.521 -1.549 -1.575 -1.599 -1.622 -1.644 -1.664
-1.736 -1.717 -1.697 -1.675 -1.650 -1.624 -1.594 -1.560 -1.520 -1.473 -1.417 -1.348 -1.262 -1.155 -1.022 -0.857 -0.654 -0.406 -0.109 0.242 0.649 1.110 1.622 2.176 2.759 3.356 3.946 4.509 5.019 5.457 5.802 6.039 6.158 6.155 6.035 5.805 5.482 5.085 4.635 4.154 3.666 3.188 2.737 2.325 1.961 1.648 1.387 1.176 1.010 0.885 0.794 0.730 0.688 0.662 0.648 0.642 0.640 0.641 0.642 0.643 0.641 0.638 0.631 0.621 0.609 0.592 0.573 0.550 0.524 0.495 0.463 0.429 0.391 0.351 0.308 0.263 0.216 0.167 0.117 0.064 0.011 -0.044 -0.100 -0.157 -0.214 -0.272 -0.330 -0.389 -0.447 -0.505 -0.563 -0.620 -0.677 -0.733 -0.788 -0.843 -0.896 -0.948 -0.998 -1.048 -1.096 -1.142 -1.188 -1.231 -1.273 -1.314 -1.353 -1.390 -1.425 -1.460 -1.492 -1.523 -1.552 -1.580 -1.607 -1.632 -1.655 -1.677 -1.698 -1.718 -1.736
-1.806 -1.789 -1.771 -1.751 -1.729 -1.705 -1.678 -1.647 -1.611 -1.568 -1.516 -1.452 -1.374 -1.275 -1.153 -1.000 -0.812 -0.583 -0.307 0.018 0.395 0.823 1.298 1.812 2.353 2.907 3.455 3.976 4.450 4.856 5.175 5.394 5.503 5.499 5.385 5.170 4.869 4.497 4.077 3.629 3.173 2.727 2.306 1.922 1.581 1.289 1.045 0.848 0.693 0.575 0.489 0.429 0.389 0.365 0.351 0.345 0.343 0.343 0.344 0.344 0.343 0.340 0.334 0.325 0.313 0.299 0.281 0.261 0.237 0.211 0.182 0.151 0.117 0.080 0.042 0.001 -0.041 -0.086 -0.131 -0.179 -0.227 -0.277 -0.327 -0.379 -0.431 -0.483 -0.536 -0.588 -0.641 -0.694 -0.746 -0.798 -0.849 -0.900 -0.950 -0.999 -1.047 -1.094 -1.140 -1.184 -1.228 -1.270 -1.311 -1.350 -1.388 -1.425 -1.460 -1.493 -1.526 -1.557 -1.586 -1.614 -1.640 -1.666 -1.690 -1.712 -1.733 -1.754 -1.772 -1.790 -1.807
-1.875 -1.860 -1.843 -1.825 -1.806 -1.784 -1.759 -1.731 -1.698 -1.659 -1.612 -1.554 -1.481 -1.391 -1.278 -1.138 -0.964 -0.753 -0.499 -0.198 0.150 0.545 0.984 1.459 1.959 2.471 2.978 3.459 3.897 4.271 4.566 4.768 4.867 4.863 4.756 4.556 4.275 3.929 3.539 3.122 2.699 2.284 1.893 1.536 1.220 0.948 0.721 0.537 0.393 0.283 0.203 0.146 0.109 0.085 0.072 0.066 0.064 0.064 0.064 0.064 0.063 0.060 0.055 0.047 0.036 0.023 0.007 -0.011 -0.032 -0.056 -0.082 -0.110 -0.141 -0.174 -0.209 -0.245 -0.284 -0.323 -0.365 -0.407 -0.451 -0.496 -0.542 -0.588 -0.635 -0.682 -0.729 -0.777 -0.825 -0.872 -0.919 -0.966 -1.012 -1.058 -1.103 -1.147 -1.190 -1.233 -1.274 -1.314 -1.354 -1.392 -1.428 -1.464 -1.498 -1.531 -1.563 -1.593 -1.622 -1.650 -1.677 -1.702 -1.726 -1.749 -1.770 -1.790 -1.810 -1.828 -1.845 -1.861 -1.876
-1.943 -1.929 -1.914 -1.898 -1.880 -1.860 -1.838 -1.813 -1.783 -1.747 -1.704 -1.651 -1.585 -1.503 -1.399 -1.270 -1.111 -0.917 -0.683 -0.407 -0.087 0.277 0.681 1.118 1.579 2.050 2.517 2.960 3.363 3.707 3.978 4.163 4.254 4.248 4.149 3.963 3.702 3.383 3.021 2.636 2.244 1.861 1.499 1.169 0.876 0.624 0.414 0.244 0.110 0.008 -0.067 -0.120 -0.155 -0.177 -0.190 -0.196 -0.198 -0.198 -0.198 -0.198 -0.199 -0.202 -0.207 -0.214 -0.223 -0.235 -0.249 -0.266 -0.285 -0.306 -0.330 -0.355 -0.383 -0.412 -0.444 -0.477 -0.511 -0.547 -0.584 -0.622 -0.662 -0.702 -0.743 -0.785 -0.827 -0.869 -0.912 -0.955 -0.998 -1.040 -1.083 -1.125 -1.166 -1.208 -1.248 -1.288 -1.327 -1.365 -1.402 -1.438 -1.474 -1.508 -1.541 -1.573 -1.604 -1.633 -1.662 -1.689 -1.715 -1.740 -1.764 -1.787 -1.808 -1.829 -1.848 -1.866 -1.884 -1.900 -1.915 -1.930 -1.943
-2.009 -1.997 -1.983 -1.969 -1.953 -1.935 -1.915 -1.892 -1.865 -1.833 -1.794 -1.745 -1.685 -1.610 -1.516 -1.398 -1.252 -1.074 -0.860 -0.607 -0.314 0.020 0.390 0.791 1.214 1.646 2.073 2.480 2.849 3.164 3.412 3.581 3.664 3.658 3.565 3.394 3.154 2.859 2.526 2.171 1.810 1.457 1.124 0.820 0.550 0.318 0.124 -0.033 -0.157 -0.251 -0.320 -0.369 -0.402 -0.423 -0.435 -0.441 -0.443 -0.443 -0.443 -0.443 -0.444 -0.447 -0.451 -0.458 -0.466 -0.477 -0.490 -0.504 -0.522 -0.541 -0.562 -0.585 -0.609 -0.636 -0.664 -0.693 -0.724 -0.757 -0.790 -0.824 -0.860 -0.896 -0.933 -0.970 -1.008 -1.046 -1.084 -1.123 -1.161 -1.199 -1.237 -1.275 -1.312 -1.349 -1.386 -1.421 -1.456 -1.490 -1.524 -1.556 -1.588 -1.619 -1.648 -1.677 -1.705 -1.731 -1.757 -1.781 -1.805 -1.827 -1.849 -1.869 -1.888 -1.907 -1.924 -1.940 -1.956 -1.971 -1.984 -1.997 -2.009
-2.074 -2.063 -2.051 -2.038 -2.023 -2.007 -1.989 -1.969 -1.944 -1.915 -1.880 -1.836 -1.782 -1.713 -1.627 -1.520 -1.387 -1.225 -1.030 -0.799 -0.531 -0.226 0.112 0.478 0.864 1.259 1.649 2.020 2.357 2.645 2.871 3.025 3.100 3.093 3.008 2.850 2.630 2.360 2.054 1.729 1.398 1.074 0.769 0.489 0.242 0.029 -0.149 -0.293 -0.407 -0.494 -0.558 -0.603 -0.633 -0.653 -0.664 -0.670 -0.672 -0.672 -0.672 -0.672 -0.673 -0.676 -0.680 -0.685 -0.693 -0.703 -0.714 -0.727 -0.743 -0.760 -0.778 -0.799 -0.821 -0.845 -0.870 -0.896 -0.924 -0.953 -0.983 -1.014 -1.045 -1.077 -1.110 -1.144 -1.178 -1.212 -1.246 -1.280 -1.315 -1.349 -1.383 -1.417 -1.450 -1.483 -1.516 -1.548 -1.579 -1.610 -1.640 -1.669 -1.697 -1.724 -1.751 -1.777 -1.801 -1.825 -1.848 -1.870 -1.891 -1.911 -1.930 -1.948 -1.966 -1.982 -1.998 -2.012 -2.026 -2.039 -2.052 -2.063 -2.074
-2.137 -2.127 -2.117 -2.105 -2.092 -2.078 -2.062 -2.043 -2.021 -1.995 -1.963 -1.924 -1.875 -1.813 -1.735 -1.637 -1.517 -1.370 -1.192 -0.982 -0.738 -0.461 -0.154 0.179 0.530 0.889 1.244 1.582 1.889 2.150 2.356 2.495 2.563 2.556 2.478 2.334 2.132 1.885 1.606 1.309 1.007 0.711 0.432 0.177 -0.049 -0.243 -0.406 -0.538 -0.642 -0.721 -0.780 -0.821 -0.849 -0.867 -0.878 -0.883 -0.885 -0.886 -0.886 -0.886 -0.887 -0.889 -0.893 -0.898 -0.905 -0.913 -0.923 -0.935 -0.949 -0.964 -0.981 -0.999 -1.019 -1.040 -1.063 -1.086 -1.111 -1.137 -1.163 -1.191 -1.219 -1.248 -1.277 -1.307 -1.337 -1.368 -1.398 -1.429 -1.460 -1.490 -1.521 -1.551 -1.581 -1.610 -1.639 -1.668 -1.696 -1.723 -1.750 -1.776 -1.801 -1.825 -1.849 -1.872 -1.894 -1.915 -1.936 -1.955 -1.974 -1.992 -2.009 -2.025 -2.041 -2.056 -2.069 -2.083 -2.095 -2.107 -2.118 -2.128 -2.138
-2.200 -2.191 -2.181 -2.171 -2.159 -2.147 -2.132 -2.116 -2.096 -2.073 -2.044 -2.008 -1.964 -1.908 -1.838 -1.750 -1.641 -1.508 -1.347 -1.157 -0.936 -0.685 -0.406 -0.105 0.214 0.539 0.861 1.167 1.444 1.681 1.867 1.993 2.054 2.048 1.976 1.844 1.661 1.437 1.183 0.913 0.638 0.369 0.116 -0.116 -0.322 -0.499 -0.647 -0.767 -0.862 -0.934 -0.988 -1.025 -1.051 -1.068 -1.077 -1.082 -1.085 -1.085 -1.085 -1.086 -1.086 -1.088 -1.092 -1.096 -1.102 -1.110 -1.119 -1.129 -1.142 -1.155 -1.170 -1.186 -1.204 -1.223 -1.243 -1.264 -1.286 -1.309 -1.332 -1.357 -1.382 -1.408 -1.434 -1.461 -1.487 -1.514 -1.542 -1.569 -1.596 -1.624 -1.651 -1.678 -1.704 -1.730 -1.756 -1.782 -1.806 -1.831 -1.855 -1.878 -1.900 -1.922 -1.943 -1.963 -1.983 -2.002 -2.020 -2.038 -2.054 -2.070 -2.086 -2.100 -2.114 -2.127 -2.139 -2.151 -2.162 -2.172 -2.182 -2.191 -2.200
-2.261 -2.253 -2.245 -2.235 -2.225 -2.214 -2.201 -2.186 -2.169 -2.148 -2.122 -2.090 -2.050 -2.000 -1.937 -1.857 -1.759 -1.639 -1.494 -1.323 -1.124 -0.897 -0.646 -0.373 -0.086 0.208 0.498 0.774 1.024 1.238 1.406 1.519 1.574 1.568 1.503 1.383 1.217 1.014 0.784 0.540 0.291 0.048 -0.182 -0.392 -0.578 -0.738 -0.872 -0.981 -1.067 -1.133 -1.182 -1.216 -1.239 -1.254 -1.263 -1.268 -1.270 -1.271 -1.271 -1.271 -1.272 -1.274 -1.277 -1.281 -1.286 -1.293 -1.301 -1.310 -1.321 -1.333 -1.346 -1.361 -1.377 -1.393 -1.411 -1.430 -1.449 -1.470 -1.491 -1.512 -1.535 -1.558 -1.581 -1.604 -1.628 -1.652 -1.677 -1.701 -1.725 -1.749 -1.773 -1.797 -1.821 -1.844 -1.867 -1.890 -1.912 -1.933 -1.954 -1.975 -1.995 -2.014 -2.033 -2.051 -2.069 -2.085 -2.102 -2.117 -2.132 -2.146 -2.160 -2.172 -2.185 -2.196 -2.207 -2.218 -2.227 -2.237 -2.245 -2.253 -2.261
-2.321 -2.314 -2.307 -2.298 -2.289 -2.279 -2.268 -2.255 -2.239 -2.220 -2.197 -2.169 -2.133 -2.088 -2.031 -1.960 -1.872 -1.764 -1.634 -1.480 -1.301 -1.098 -0.872 -0.627 -0.369 -0.105 0.156 0.404 0.630 0.822 0.972 1.074 1.123 1.117 1.058 0.950 0.800 0.617 0.410 0.189 -0.035 -0.254 -0.461 -0.650 -0.818 -0.962 -1.083 -1.182 -1.259 -1.319 -1.363 -1.394 -1.415 -1.429 -1.437 -1.441 -1.443 -1.444 -1.444 -1.444 -1.445 -1.447 -1.449 -1.453 -1.458 -1.463 -1.471 -1.479 -1.489 -1.499 -1.511 -1.524 -1.538 -1.552 -1.568 -1.585 -1.602 -1.620 -1.639 -1.658 -1.678 -1.698 -1.719 -1.739 -1.761 -1.782 -1.803 -1.825 -1.846 -1.868 -1.889 -1.910 -1.931 -1.952 -1.972 -1.992 -2.012 -2.031 -2.050 -2.068 -2.085 -2.103 -2.119 -2.135 -2.151 -2.166 -2.180 -2.194 -2.207 -2.219 -2.231 -2.243 -2.254 -2.264 -2.274 -2.283 -2.291 -2.300 -2.307 -2.314 -2.321
-2.380 -2.374 -2.367 -2.360 -2.352 -2.343 -2.333 -2.321 -2.308 -2.291 -2.271 -2.245 -2.213 -2.173 -2.122 -2.059 -1.980 -1.884 -1.767 -1.629 -1.469 -1.287 -1.085 -0.865 -0.634 -0.398 -0.164 0.058 0.259 0.431 0.566 0.657 0.700 0.695 0.642 0.545 0.410 0.245 0.060 -0.138 -0.339 -0.536 -0.722 -0.891 -1.042 -1.172 -1.280 -1.369 -1.438 -1.492 -1.531 -1.560 -1.579 -1.591 -1.599 -1.603 -1.604 -1.605 -1.605 -1.606 -1.606 -1.608 -1.610 -1.613 -1.617 -1.622 -1.629 -1.636 -1.645 -1.654 -1.664 -1.676 -1.688 -1.701 -1.715 -1.730 -1.745 -1.761 -1.777 -1.794 -1.812 -1.830 -1.848 -1.866 -1.885 -1.904 -1.923 -1.942 -1.961 -1.980 -1.999 -2.017 -2.036 -2.054 -2.072 -2.090 -2.107 -2.124 -2.140 -2.156 -2.172 -2.187 -2.202 -2.216 -2.230 -2.243 -2.256 -2.268 -2.279 -2.290 -2.301 -2.311 -2.321 -2.330 -2.338 -2.346 -2.354 -2.361 -2.368 -2.374 -2.380
-2.438 -2.433 -2.427 -2.421 -2.414 -2.406 -2.397 -2.387 -2.374 -2.360 -2.342 -2.319 -2.291 -2.255 -2.210 -2.153 -2.083 -1.997 -1.893 -1.770 -1.628 -1.465 -1.285 -1.089 -0.883 -0.672 -0.464 -0.266 -0.086 0.067 0.187 0.268 0.306 0.301 0.254 0.167 0.047 -0.101 -0.267 -0.443 -0.623 -0.799 -0.965 -1.117 -1.251 -1.367 -1.464 -1.543 -1.606 -1.653 -1.689 -1.714 -1.731 -1.742 -1.749 -1.753 -1.755 -1.755 -1.755 -1.756 -1.756 -1.758 -1.759 -1.762 -1.766 -1.771 -1.776 -1.783 -1.790 -1.798 -1.808 -1.818 -1.828 -1.840 -1.852 -1.865 -1.879 -1.893 -1.907 -1.922 -1.938 -1.953 -1.969 -1.986 -2.002 -2.019 -2.035 -2.052 -2.069 -2.086 -2.102 -2.119 -2.135 -2.151 -2.167 -2.182 -2.198 -2.212 -2.227 -2.241 -2.255 -2.268 -2.281 -2.294 -2.306 -2.317 -2.329 -2.339 -2.350 -2.359 -2.369 -2.378 -2.386 -2.394 -2.402 -2.409 -2.415 -2.422 -2.428 -2.433 -2.439
-2.496 -2.491 -2.486 -2.480 -2.474 -2.467 -2.459 -2.450 -2.439 -2.426 -2.410 -2.391 -2.365 -2.334 -2.294 -2.244 -2.181 -2.105 -2.013 -1.904 -1.777 -1.633 -1.472 -1.299 -1.116 -0.929 -0.744 -0.568 -0.408 -0.272 -0.166 -0.094 -0.060 -0.064 -0.107 -0.184 -0.291 -0.422 -0.570 -0.727 -0.887 -1.044 -1.191 -1.326 -1.446 -1.549 -1.636 -1.706 -1.762 -1.804 -1.836 -1.858 -1.874 -1.884 -1.890 -1.893 -1.895 -1.895 -1.895 -1.896 -1.896 -1.897 -1.899 -1.901 -1.905 -1.909 -1.914 -1.919 -1.926 -1.933 -1.941 -1.950 -1.960 -1.970 -1.980 -1.992 -2.004 -2.016 -2.029 -2.042 -2.056 -2.069 -2.083 -2.098 -2.112 -2.127 -2.142 -2.156 -2.171 -2.186 -2.200 -2.215 -2.229 -2.243 -2.257 -2.271 -2.284 -2.297 -2.310 -2.322 -2.335 -2.346 -2.358 -2.369 -2.379 -2.390 -2.399 -2.409 -2.418 -2.426 -2.435 -2.442 -2.450 -2.457 -2.463 -2.470 -2.476 -2.481 -2.487 -2.491 -2.496
-2.553 -2.548 -2.544 -2.539 -2.533 -2.527 -2.520 -2.512 -2.503 -2.492 -2.477 -2.460 -2.438 -2.410 -2.374 -2.330 -2.275 -2.208 -2.126 -2.030 -1.917 -1.790 -1.648 -1.495 -1.333 -1.167 -1.003 -0.848 -0.707 -0.586 -0.492 -0.429 -0.399 -0.403 -0.441 -0.509 -0.604 -0.720 -0.851 -0.990 -1.132 -1.271 -1.402 -1.521 -1.627 -1.719 -1.795 -1.858 -1.907 -1.945 -1.973 -1.993 -2.007 -2.015 -2.021 -2.024 -2.025 -2.026 -2.026 -2.026 -2.027 -2.028 -2.029 -2.031 -2.034 -2.038 -2.042 -2.047 -2.053 -2.059 -2.066 -2.074 -2.082 -2.091 -2.101 -2.111 -2.121 -2.132 -2.143 -2.155 -2.166 -2.179 -2.191 -2.203 -2.216 -2.229 -2.242 -2.255 -2.268 -2.281 -2.293 -2.306 -2.319 -2.331 -2.343 -2.355 -2.367 -2.378 -2.390 -2.400 -2.411 -2.421 -2.431 -2.441 -2.450 -2.459 -2.468 -2.476 -2.484 -2.492 -2.499 -2.506 -2.512 -2.518 -2.524 -2.530 -2.535 -2.540 -2.544 -2.549 -2.553
-2.609 -2.605 -2.601 -2.597 -2.592 -2.586 -2.580 -2.573 -2.565 -2.555 -2.543 -2.527 -2.508 -2.483 -2.452 -2.413 -2.365 -2.305 -2.233 -2.148 -2.050 -1.937 -1.812 -1.677 -1.534 -1.388 -1.244 -1.107 -0.983 -0.877 -0.794 -0.738 -0.712 -0.715 -0.749 -0.809 -0.893 -0.996 -1.111 -1.234 -1.359 -1.481 -1.597 -1.702 -1.796 -1.877 -1.944 -1.999 -2.043 -2.076 -2.101 -2.118 -2.131 -2.138 -2.143 -2.146 -2.147 -2.148 -2.148 -2.148 -2.149 -2.149 -2.151 -2.153 -2.155 -2.158 -2.162 -2.166 -2.171 -2.177 -2.183 -2.190 -2.197 -2.205 -2.213 -2.222 -2.231 -2.240 -2.250 -2.260 -2.271 -2.281 -2.292 -2.303 -2.314 -2.325 -2.337 -2.348 -2.359 -2.371 -2.382 -2.393 -2.404 -2.415 -2.425 -2.436 -2.446 -2.456 -2.466 -2.476 -2.485 -2.494 -2.503 -2.511 -2.519 -2.527 -2.534 -2.542 -2.549 -2.555 -2.561 -2.567 -2.573 -2.578 -2.584 -2.588 -2.593 -2.597 -2.601 -2.605 -2.609
-2.664 -2.661 -2.657 -2.653 -2.649 -2.645 -2.639 -2.633 -2.626 -2.617 -2.606 -2.593 -2.576 -2.554 -2.527 -2.493 -2.450 -2.398 -2.335 -2.261 -2.174 -2.075 -1.966 -1.847 -1.722 -1.594 -1.467 -1.347 -1.238 -1.145 -1.072 -1.023 -1.000 -1.003 -1.033 -1.086 -1.159 -1.249 -1.351 -1.459 -1.569 -1.676 -1.777 -1.870 -1.952 -2.023 -2.083 -2.131 -2.169 -2.199 -2.220 -2.236 -2.247 -2.254 -2.258 -2.260 -2.261 -2.262 -2.262 -2.262 -2.262 -2.263 -2.264 -2.266 -2.268 -2.271 -2.274 -2.278 -2.282 -2.287 -2.293 -2.299 -2.305 -2.312 -2.319 -2.326 -2.334 -2.343 -2.351 -2.360 -2.369 -2.378 -2.388 -2.397 -2.407 -2.417 -2.427 -2.437 -2.446 -2.456 -2.466 -2.476 -2.485 -2.495 -2.504 -2.513 -2.522 -2.531 -2.539 -2.548 -2.556 -2.564 -2.571 -2.579 -2.586 -2.593 -2.599 -2.605 -2.611 -2.617 -2.623 -2.628 -2.633 -2.638 -2.642 -2.646 -2.650 -2.654 -2.658 -2.661 -2.664
-2.719 -2.716 -2.713 -2.709 -2.706 -2.702 -2.697 -2.692 -2.685 -2.678 -2.668 -2.657 -2.642 -2.623 -2.599 -2.569 -2.532 -2.486 -2.431 -2.366 -2.291 -2.204 -2.109 -2.005 -1.895 -1.783 -1.673 -1.568 -1.472 -1.391 -1.327 -1.285 -1.265 -1.268 -1.293 -1.340 -1.404 -1.483 -1.572 -1.666 -1.762 -1.856 -1.945 -2.026 -2.098 -2.160 -2.212 -2.254 -2.288 -2.313 -2.332 -2.346 -2.355 -2.361 -2.365 -2.367 -2.368 -2.369 -2.369 -2.369 -2.369 -2.370 -2.371 -2.372 -2.374 -2.377 -2.379 -2.383 -2.387 -2.391 -2.396 -2.401 -2.406 -2.412 -2.418 -2.425 -2.432 -2.439 -2.447 -2.454 -2.462 -2.470 -2.478 -2.487 -2.495 -2.504 -2.512 -2.521 -2.529 -2.538 -2.546 -2.555 -2.563 -2.571 -2.579 -2.587 -2.595 -2.603 -2.610 -2.618 -2.625 -2.631 -2.638 -2.644 -2.651 -2.657 -2.662 -2.668 -2.673 -2.678 -2.683 -2.687 -2.692 -2.696 -2.700 -2.703 -2.707 -2.710 -2.713 -2.716 -2.719
-2.773 -2.770 -2.768 -2.765 -2.762 -2.758 -2.754 -2.749 -2.744 -2.737 -2.729 -2.719 -2.706 -2.689 -2.669 -2.643 -2.610 -2.571 -2.523 -2.466 -2.400 -2.325 -2.242 -2.151 -2.056 -1.959 -1.862 -1.771 -1.688 -1.617 -1.562 -1.525 -1.507 -1.510 -1.532 -1.573 -1.629 -1.697 -1.775 -1.857 -1.941 -2.022 -2.100 -2.170 -2.233 -2.287 -2.332 -2.369 -2.398 -2.421 -2.437 -2.449 -2.457 -2.463 -2.466 -2.468 -2.469 -2.469 -2.469 -2.469 -2.470 -2.470 -2.471 -2.472 -2.474 -2.476 -2.478 -2.481 -2.485 -2.488 -2.492 -2.497 -2.502 -2.507 -2.512 -2.518 -2.524 -2.530 -2.537 -2.543 -2.550 -2.557 -2.564 -2.571 -2.579 -2.586 -2.594 -2.601 -2.608 -2.616 -2.623 -2.631 -2.638 -2.645 -2.652 -2.659 -2.666 -2.672 -2.679 -2.685 -2.691 -2.697 -2.703 -2.708 -2.714 -2.719 -2.724 -2.729 -2.733 -2.737 -2.742 -2.746 -2.749 -2.753 -2.756 -2.759 -2.762 -2.765 -2.768 -2.770 -2.773
-2.826 -2.824 -2.822 -2.820 -2.817 -2.814 -2.810 -2.806 -2.801 -2.796 -2.789 -2.780 -2.768 -2.754 -2.736 -2.714 -2.686 -2.651 -2.610 -2.561 -2.504 -2.438 -2.366 -2.288 -2.205 -2.121 -2.037 -1.958 -1.886 -1.825 -1.777 -1.744 -1.729 -1.732 -1.751 -1.786 -1.835 -1.894 -1.961 -2.033 -2.105 -2.176 -2.243 -2.304 -2.359 -2.406 -2.445 -2.477 -2.502 -2.522 -2.536 -2.546 -2.553 -2.558 -2.561 -2.562 -2.563 -2.563 -2.564 -2.564 -2.564 -2.564 -2.565 -2.566 -2.568 -2.569 -2.572 -2.574 -2.577 -2.580 -2.584 -2.588 -2.592 -2.596 -2.601 -2.606 -2.611 -2.616 -2.622 -2.628 -2.634 -2.640 -2.646 -2.652 -2.658 -2.665 -2.671 -2.678 -2.684 -2.691 -2.697 -2.703 -2.710 -2.716 -2.722 -2.728 -2.734 -2.739 -2.745 -2.750 -2.756 -2.761 -2.766 -2.771 -2.775 -2.780 -2.784 -2.788 -2.792 -2.796 -2.799 -2.803 -2.806 -2.809 -2.812 -2.815 -2.817 -2.820 -2.822 -2.824 -2.826
-2.880 -2.878 -2.876 -2.874 -2.871 -2.869 -2.866 -2.862 -2.858 -2.853 -2.847 -2.839 -2.830 -2.817 -2.802 -2.782 -2.758 -2.729 -2.693 -2.650 -2.601 -2.545 -2.482 -2.415 -2.343 -2.270 -2.198 -2.130 -2.067 -2.014 -1.973 -1.945 -1.932 -1.934 -1.951 -1.981 -2.023 -2.075 -2.133 -2.194 -2.257 -2.318 -2.376 -2.429 -2.476 -2.516 -2.550 -2.578 -2.600 -2.616 -2.629 -2.638 -2.644 -2.648 -2.650 -2.652 -2.652 -2.652 -2.653 -2.653 -2.653 -2.653 -2.654 -2.655 -2.656 -2.658 -2.660 -2.662 -2.664 -2.667 -2.670 -2.673 -2.677 -2.681 -2.685 -2.689 -2.694 -2.698 -2.703 -2.708 -2.713 -2.718 -2.724 -2.729 -2.735 -2.740 -2.746 -2.751 -2.757 -2.762 -2.768 -2.773 -2.779 -2.784 -2.789 -2.794 -2.800 -2.804 -2.809 -2.814 -2.819 -2.823 -2.827 -2.831 -2.836 -2.839 -2.843 -2.847 -2.850 -2.853 -2.856 -2.859 -2.862 -2.865 -2.867 -2.870 -2.872 -2.874 -2.876 -2.878 -2.880
-2.932 -2.931 -2.929 -2.927 -2.925 -2.923 -2.920 -2.917 -2.914 -2.910 -2.904 -2.898 -2.889 -2.879 -2.865 -2.849 -2.828 -2.802 -2.772 -2.735 -2.693 -2.644 -2.591 -2.532 -2.471 -2.408 -2.346 -2.287 -2.234 -2.188 -2.153 -2.129 -2.117 -2.119 -2.134 -2.160 -2.196 -2.240 -2.290 -2.343 -2.397 -2.449 -2.499 -2.544 -2.585 -2.620 -2.649 -2.673 -2.691 -2.706 -2.716 -2.724 -2.729 -2.733 -2.735 -2.736 -2.737 -2.737 -2.737 -2.737 -2.737 -2.738 -2.738 -2.739 -2.740 -2.741 -2.743 -2.745 -2.747 -2.749 -2.752 -2.755 -2.758 -2.761 -2.765 -2.768 -2.772 -2.776 -2.780 -2.785 -2.789 -2.794 -2.798 -2.803 -2.808 -2.812 -2.817 -2.822 -2.827 -2.831 -2.836 -2.841 -2.846 -2.850 -2.855 -2.859 -2.863 -2.868 -2.872 -2.876 -2.880 -2.884 -2.887 -2.891 -2.894 -2.898 -2.901 -2.904 -2.907 -2.910 -2.912 -2.915 -2.917 -2.920 -2.922 -2.924 -2.926 -2.928 -2.929 -2.931 -2.932
-2.985 -2.984 -2.982 -2.981 -2.979 -2.977 -2.975 -2.972 -2.969 -2.965 -2.961 -2.955 -2.948 -2.939 -2.927 -2.913 -2.895 -2.873 -2.847 -2.816 -2.779 -2.738 -2.692 -2.642 -2.590 -2.536 -2.483 -2.432 -2.386 -2.347 -2.317 -2.296 -2.287 -2.288 -2.300 -2.323 -2.354 -2.391 -2.434 -2.479 -2.526 -2.571 -2.613 -2.652 -2.687 -2.717 -2.742 -2.762 -2.778 -2.790 -2.799 -2.806 -2.810 -2.813 -2.815 -2.816 -2.817 -2.817 -2.817 -2.817 -2.817 -2.817 -2.818 -2.819 -2.820 -2.821 -2.822 -2.824 -2.825 -2.828 -2.830 -2.832 -2.835 -2.838 -2.841 -2.844 -2.847 -2.851 -2.854 -2.858 -2.862 -2.866 -2.870 -2.874 -2.878 -2.882 -2.886 -2.890 -2.894 -2.898 -2.902 -2.906 -2.910 -2.914 -2.918 -2.922 -2.926 -2.929 -2.933 -2.936 -2.940 -2.943 -2.946 -2.949 -2.952 -2.955 -2.958 -2.960 -2.963 -2.965 -2.968 -2.970 -2.972 -2.974 -2.976 -2.978 -2.979 -2.981 -2.982 -2.984 -2.985
